;FLAVOR:RepRap
;TIME:10217
;Filament used: 7.39434m
;Layer height: 0.15
;Generated with Cura_SteamEngine 3.5.1
T0
M82 ;absolute extrusion mode
; Ender 3 Custom Start G-code
M104 S200 ; Set Extruder temperature
M140 S60 ; Set Heat Bed temperature
M190 S60 ; Wait for Heat Bed temperature
M109 S200 ; Wait for Extruder temperature
G28 ; Home all axes
G92 E0 ; Reset Extruder
G1 Z5.0 F3000 ; Move Z Axis up little to prevent scratching of Heat Bed
G1 X0.1 Y20 Z0.3 F5000.0 ; Move to start position
G1 X0.1 Y200.0 Z0.3 F1500.0 E15 ; Draw the first line
G1 X0.4 Y200.0 Z0.3 F5000.0 ; Move to side a little
G1 X0.4 Y20 Z0.3 F1500.0 E30 ; Draw the second line
G92 E0 ; Reset Extruder
G1 Z5.0 F3000 ; Move Z Axis up little to prevent scratching of Heat Bed
M83 ;relative extrusion mode
G1 F2400 E-5
;LAYER_COUNT:106
;LAYER:0
M107
M204 T5000
M566 X1800 Y1800
G0 F3600 X54.08 Y73.965 Z0.2
M204 P500
M566 X1200 Y1200
;TYPE:SKIRT
G1 F2400 E5
G1 F1500 X54.635 Y73.57 E0.02266
G1 X54.929 Y73.397 E0.01135
G1 X55.529 Y73.068 E0.02276
G1 X56.145 Y72.777 E0.02266
G1 X56.51 Y72.643 E0.01293
G1 X57.08 Y72.456 E0.01995
G1 X57.738 Y72.282 E0.02264
G1 X58.45 Y72.184 E0.0239
G1 X59.758 Y72.085 E0.04363
G1 X60.439 Y72.073 E0.02265
G1 X61.01 Y72.131 E0.01909
G1 X64.026 Y72.06 E0.10034
G1 X64.421 Y72.064 E0.01314
G1 X65.315 Y72.104 E0.02976
G1 X66.35 Y72.063 E0.03445
G1 X67.047 Y72.078 E0.02319
G1 X67.497 Y72.115 E0.01502
G1 X77.147 Y72.058 E0.32097
G1 X77.378 Y72.061 E0.00768
G1 X78.796 Y72.109 E0.04719
G1 X79.807 Y72.063 E0.03366
G1 X80.38 Y72.065 E0.01906
G1 X81.295 Y72.114 E0.03048
G1 X82.847 Y72.062 E0.05165
G1 X83.534 Y72.08 E0.02286
G1 X83.953 Y72.116 E0.01399
G1 X91 Y72.059 E0.23439
G1 X91.514 Y72.078 E0.01711
G1 X91.874 Y72.107 E0.01201
G1 X93.349 Y72.062 E0.04908
G1 X94.006 Y72.079 E0.02186
G1 X94.423 Y72.114 E0.01392
G1 X100.483 Y72.059 E0.20156
G1 X100.533 Y72.059 E0.00166
G1 X107.129 Y72.057 E0.21938
G1 X107.337 Y72.061 E0.00692
G1 X108.854 Y72.115 E0.05049
G1 X115.555 Y72.057 E0.22288
G1 X115.908 Y72.065 E0.01174
G1 X116.86 Y72.115 E0.03171
G1 X125.01 Y72.056 E0.27108
G1 X125.346 Y72.063 E0.01118
G1 X126.324 Y72.113 E0.03257
G1 X133.458 Y72.059 E0.23728
G1 X133.968 Y72.078 E0.01697
G1 X134.395 Y72.112 E0.01425
G1 X142.973 Y72.058 E0.28531
G1 X143.305 Y72.066 E0.01105
G1 X144.273 Y72.115 E0.03224
G1 X156.487 Y72.058 E0.40624
G1 X156.792 Y72.065 E0.01015
G1 X157.706 Y72.109 E0.03043
G1 X159.48 Y72.058 E0.05903
G1 X159.76 Y72.057 E0.00931
G1 X160.729 Y72.076 E0.03224
G1 X161.407 Y72.129 E0.02262
G1 X162.214 Y72.3 E0.02744
G1 X163.462 Y72.658 E0.04318
G1 X164.105 Y72.884 E0.02267
G1 X164.716 Y73.183 E0.02262
G1 X165.124 Y73.437 E0.01598
G1 X166.027 Y74.051 E0.03632
G1 X166.567 Y74.466 E0.02265
G1 X167.126 Y75.022 E0.02622
G1 X167.562 Y75.519 E0.02199
G1 X167.98 Y76.056 E0.02263
G1 X168.333 Y76.639 E0.02267
G1 X168.614 Y77.258 E0.02261
G1 X169.097 Y78.511 E0.04466
G1 X169.304 Y79.159 E0.02263
G1 X169.384 Y79.52 E0.0123
G1 X169.551 Y80.404 E0.02992
G1 X169.638 Y81.08 E0.02267
G1 X169.648 Y81.684 E0.02009
G1 X169.6 Y83.067 E0.04603
G1 X169.656 Y94.279 E0.37292
G1 X169.656 Y94.339 E0.002
G1 X169.602 Y104.407 E0.33487
G1 X169.65 Y105.52 E0.03705
G1 X169.635 Y106.248 E0.02422
G1 X169.602 Y106.646 E0.01328
G1 X169.657 Y117.737 E0.36889
G1 X169.656 Y117.85 E0.00376
G1 X169.605 Y121.398 E0.11802
G1 X169.652 Y122.516 E0.03722
G1 X169.637 Y123.245 E0.02425
G1 X169.603 Y123.656 E0.01372
G1 X169.641 Y138.003 E0.47718
G1 X169.613 Y138.512 E0.01696
G1 X169.633 Y138.716 E0.00682
G1 X169.621 Y139.397 E0.02265
G1 X169.532 Y140.058 E0.02218
G1 X169.377 Y140.858 E0.0271
G1 X169.209 Y141.518 E0.02265
G1 X168.964 Y142.153 E0.02264
G1 X168.77 Y142.54 E0.0144
G1 X168.309 Y143.382 E0.03193
G1 X167.948 Y143.959 E0.02264
G1 X167.403 Y144.617 E0.02842
G1 X166.576 Y145.477 E0.03968
G1 X166.076 Y145.939 E0.02264
G1 X165.525 Y146.34 E0.02267
G1 X164.908 Y146.684 E0.0235
G1 X163.733 Y147.249 E0.04336
G1 X163.104 Y147.508 E0.02262
G1 X162.448 Y147.691 E0.02265
G1 X161.775 Y147.795 E0.02265
G1 X161.364 Y147.811 E0.01368
G1 X161.309 Y147.822 E0.00187
G1 X160.635 Y147.919 E0.02265
G1 X159.954 Y147.937 E0.02266
G1 X159.595 Y147.897 E0.01201
G1 X158.959 Y147.943 E0.02121
G1 X152.324 Y147.944 E0.22068
G1 X152.109 Y147.94 E0.00715
G1 X150.653 Y147.886 E0.04846
G1 X149.065 Y147.937 E0.05284
G1 X148.367 Y147.917 E0.02323
G1 X147.981 Y147.883 E0.01289
G1 X141.921 Y147.942 E0.20157
G1 X141.39 Y147.923 E0.01767
G1 X140.946 Y147.887 E0.01482
G1 X131.767 Y147.943 E0.3053
G1 X131.525 Y147.939 E0.00805
G1 X129.938 Y147.883 E0.05282
G1 X120.627 Y147.943 E0.30969
G1 X120.287 Y147.935 E0.01131
G1 X119.36 Y147.887 E0.03087
G1 X106.653 Y147.943 E0.42264
G1 X106.335 Y147.936 E0.01058
G1 X105.357 Y147.887 E0.03257
G1 X91.551 Y147.944 E0.45919
G1 X91.224 Y147.936 E0.01088
G1 X90.247 Y147.885 E0.03254
G1 X79.527 Y147.942 E0.35655
G1 X79.202 Y147.935 E0.01081
G1 X78.221 Y147.885 E0.03267
G1 X69.555 Y147.944 E0.28824
G1 X69.317 Y147.941 E0.00792
G1 X67.879 Y147.892 E0.04786
G1 X66.831 Y147.936 E0.03489
G1 X66.1 Y147.921 E0.02432
G1 X65.655 Y147.884 E0.01485
G1 X59.343 Y147.923 E0.20994
G1 X58.361 Y147.845 E0.03276
G1 X57.847 Y147.76 E0.01733
G1 X57.183 Y147.61 E0.02264
G1 X56.671 Y147.436 E0.01799
G1 X55.885 Y147.127 E0.02809
G1 X55.267 Y146.841 E0.02265
G1 X54.519 Y146.363 E0.02952
G1 X53.642 Y145.703 E0.03651
G1 X53.123 Y145.263 E0.02263
G1 X52.572 Y144.656 E0.02727
G1 X52.225 Y144.215 E0.01866
G1 X51.836 Y143.656 E0.02265
G1 X51.515 Y143.055 E0.02266
G1 X51.364 Y142.694 E0.01301
G1 X50.895 Y141.464 E0.04378
G1 X50.69 Y140.815 E0.02264
G1 X50.613 Y140.466 E0.01189
G1 X50.448 Y139.585 E0.02981
G1 X50.362 Y138.909 E0.02267
G1 X50.349 Y138.478 E0.01434
G1 X50.402 Y130.583 E0.26259
G1 X50.351 Y129.483 E0.03663
G1 X50.365 Y128.736 E0.02485
G1 X50.399 Y128.326 E0.01368
G1 X50.343 Y121.261 E0.23499
G1 X50.365 Y120.714 E0.01821
G1 X50.4 Y120.314 E0.01335
G1 X50.344 Y113.805 E0.2165
G1 X50.352 Y113.459 E0.01151
G1 X50.404 Y112.444 E0.0338
G1 X50.344 Y103.778 E0.28824
G1 X50.344 Y103.739 E0.0013
G1 X50.342 Y95.716 E0.26685
G1 X50.349 Y95.425 E0.00968
G1 X50.397 Y94.465 E0.03197
G1 X50.344 Y85.298 E0.3049
G1 X50.365 Y84.77 E0.01758
G1 X50.399 Y84.373 E0.01325
G1 X50.362 Y81.038 E0.11093
G1 X50.395 Y80.358 E0.02264
G1 X50.512 Y79.665 E0.02338
G1 X50.715 Y78.789 E0.02991
G1 X50.907 Y78.135 E0.02267
G1 X51.175 Y77.509 E0.02265
G1 X51.558 Y76.852 E0.02529
G1 X52.336 Y75.7 E0.04624
G1 X52.75 Y75.159 E0.02266
G1 X53.224 Y74.67 E0.02265
G1 X53.505 Y74.428 E0.01233
G1 X54.08 Y73.965 E0.02455
M566 X1800 Y1800
G0 F3600 X54.331 Y74.277
M566 X1200 Y1200
G1 F1500 X55.122 Y73.748 E0.03165
G1 X55.722 Y73.419 E0.02276
G1 X56.316 Y73.139 E0.02184
G1 X56.635 Y73.023 E0.01129
G1 X57.205 Y72.836 E0.01995
G1 X57.84 Y72.67 E0.02183
G1 X58.48 Y72.582 E0.02149
G1 X59.788 Y72.483 E0.04363
G1 X60.445 Y72.474 E0.02185
G1 X60.987 Y72.532 E0.01813
G1 X64.036 Y72.46 E0.10144
G1 X64.403 Y72.463 E0.01221
G1 X65.324 Y72.504 E0.03066
G1 X66.365 Y72.463 E0.03465
G1 X67.015 Y72.477 E0.02162
G1 X67.479 Y72.515 E0.01548
G1 X77.149 Y72.458 E0.32163
G1 X77.365 Y72.461 E0.00718
G1 X78.8 Y72.51 E0.04776
G1 X79.825 Y72.463 E0.03413
G1 X80.359 Y72.465 E0.01776
G1 X81.287 Y72.514 E0.03091
G1 X82.86 Y72.462 E0.05235
G1 X83.5 Y72.479 E0.02129
G1 X83.933 Y72.516 E0.01445
G1 X91.003 Y72.459 E0.23516
G1 X91.482 Y72.477 E0.01594
G1 X91.863 Y72.508 E0.01271
G1 X93.361 Y72.462 E0.04985
G1 X93.973 Y72.478 E0.02036
G1 X94.404 Y72.514 E0.01439
G1 X100.486 Y72.459 E0.2023
G1 X100.533 Y72.459 E0.00156
G1 X107.129 Y72.457 E0.21938
G1 X107.323 Y72.46 E0.00645
G1 X108.865 Y72.515 E0.05132
G1 X115.558 Y72.457 E0.22262
G1 X115.887 Y72.464 E0.01095
G1 X116.858 Y72.515 E0.03234
G1 X125.013 Y72.456 E0.27124
G1 X125.326 Y72.463 E0.01041
G1 X126.307 Y72.513 E0.03267
G1 X133.461 Y72.459 E0.23795
G1 X133.936 Y72.476 E0.01581
G1 X134.388 Y72.512 E0.01508
G1 X142.976 Y72.458 E0.28564
G1 X143.285 Y72.465 E0.01028
G1 X144.273 Y72.515 E0.0329
G1 X156.489 Y72.458 E0.40631
G1 X156.773 Y72.464 E0.00945
G1 X157.711 Y72.509 E0.03123
G1 X159.491 Y72.458 E0.05923
G1 X159.752 Y72.457 E0.00868
G1 X160.721 Y72.476 E0.03224
G1 X161.376 Y72.529 E0.02186
G1 X162.104 Y72.684 E0.02476
G1 X163.352 Y73.042 E0.04318
G1 X163.971 Y73.262 E0.02185
G1 X164.559 Y73.554 E0.02184
G1 X164.899 Y73.768 E0.01336
G1 X165.802 Y74.382 E0.03632
G1 X166.322 Y74.783 E0.02184
G1 X166.825 Y75.286 E0.02366
G1 X167.261 Y75.783 E0.02199
G1 X167.664 Y76.302 E0.02185
G1 X168 Y76.866 E0.02184
G1 X168.241 Y77.402 E0.01955
G1 X168.724 Y78.655 E0.04466
G1 X168.991 Y79.595 E0.0325
G1 X169.158 Y80.479 E0.02992
G1 X169.241 Y81.13 E0.02183
G1 X169.249 Y81.67 E0.01796
G1 X169.2 Y83.08 E0.04693
G1 X169.256 Y94.281 E0.37255
G1 X169.256 Y94.337 E0.00186
G1 X169.202 Y104.422 E0.33543
G1 X169.25 Y105.537 E0.03712
G1 X169.237 Y106.215 E0.02255
G1 X169.202 Y106.637 E0.01408
G1 X169.257 Y117.739 E0.36926
G1 X169.256 Y117.844 E0.00349
G1 X169.204 Y121.409 E0.11858
G1 X169.252 Y122.533 E0.03742
G1 X169.238 Y123.212 E0.02259
G1 X169.203 Y123.635 E0.01412
G1 X169.241 Y138.004 E0.47792
G1 X169.211 Y138.521 E0.01722
G1 X169.234 Y138.756 E0.00785
G1 X169.219 Y139.412 E0.02182
G1 X169.139 Y139.982 E0.01914
G1 X168.984 Y140.782 E0.0271
G1 X168.82 Y141.418 E0.02185
G1 X168.58 Y142.03 E0.02186
G1 X168.42 Y142.348 E0.01184
G1 X167.959 Y143.19 E0.03193
G1 X167.609 Y143.746 E0.02185
G1 X167.114 Y144.34 E0.02572
G1 X166.287 Y145.2 E0.03968
G1 X165.804 Y145.645 E0.02184
G1 X165.27 Y146.028 E0.02186
G1 X164.735 Y146.324 E0.02034
G1 X163.56 Y146.889 E0.04336
G1 X162.952 Y147.137 E0.02184
G1 X162.318 Y147.309 E0.02185
G1 X161.668 Y147.403 E0.02184
G1 X161.322 Y147.411 E0.01151
G1 X161.229 Y147.43 E0.00316
G1 X160.578 Y147.522 E0.02187
G1 X159.921 Y147.535 E0.02186
G1 X159.598 Y147.498 E0.01081
G1 X158.959 Y147.543 E0.02131
G1 X152.324 Y147.544 E0.22068
G1 X152.124 Y147.54 E0.00665
G1 X150.655 Y147.486 E0.04889
G1 X149.052 Y147.537 E0.05334
G1 X148.403 Y147.519 E0.02159
G1 X147.993 Y147.483 E0.01369
G1 X141.917 Y147.542 E0.2021
G1 X141.423 Y147.524 E0.01644
G1 X140.965 Y147.486 E0.01529
G1 X131.764 Y147.543 E0.30603
G1 X131.54 Y147.54 E0.00745
G1 X129.926 Y147.483 E0.05372
G1 X120.624 Y147.543 E0.30939
G1 X120.308 Y147.536 E0.01051
G1 X119.362 Y147.487 E0.03151
G1 X106.651 Y147.543 E0.42277
G1 X106.355 Y147.536 E0.00985
G1 X105.376 Y147.487 E0.0326
G1 X91.549 Y147.544 E0.45989
G1 X91.245 Y147.537 E0.01011
G1 X90.248 Y147.485 E0.03321
G1 X79.525 Y147.542 E0.35665
G1 X79.222 Y147.535 E0.01008
G1 X78.238 Y147.485 E0.03277
G1 X69.553 Y147.544 E0.28887
G1 X69.33 Y147.541 E0.00742
G1 X67.875 Y147.491 E0.04842
G1 X66.814 Y147.536 E0.03532
G1 X66.133 Y147.522 E0.02265
G1 X65.674 Y147.484 E0.01532
G1 X59.341 Y147.523 E0.21064
G1 X58.426 Y147.451 E0.03053
G1 X57.912 Y147.366 E0.01733
G1 X57.272 Y147.219 E0.02184
G1 X56.817 Y147.064 E0.01599
G1 X56.031 Y146.755 E0.02809
G1 X55.436 Y146.477 E0.02184
G1 X54.76 Y146.044 E0.0267
G1 X53.883 Y145.384 E0.03651
G1 X53.383 Y144.957 E0.02187
G1 X52.886 Y144.408 E0.02463
G1 X52.539 Y143.967 E0.01866
G1 X52.165 Y143.427 E0.02185
G1 X51.737 Y142.552 E0.0324
G1 X51.268 Y141.322 E0.04378
G1 X51.006 Y140.392 E0.03214
G1 X50.841 Y139.511 E0.02981
G1 X50.76 Y138.859 E0.02185
G1 X50.749 Y138.481 E0.01258
G1 X50.802 Y130.568 E0.26319
G1 X50.751 Y129.465 E0.03673
G1 X50.763 Y128.769 E0.02315
G1 X50.799 Y128.334 E0.01452
G1 X50.743 Y121.258 E0.23536
G1 X50.763 Y120.748 E0.01698
G1 X50.8 Y120.324 E0.01416
G1 X50.744 Y113.801 E0.21696
G1 X50.751 Y113.479 E0.01071
G1 X50.804 Y112.444 E0.03447
G1 X50.744 Y103.775 E0.28834
G1 X50.744 Y103.739 E0.0012
G1 X50.742 Y95.716 E0.26685
G1 X50.749 Y95.445 E0.00902
G1 X50.797 Y94.483 E0.03204
G1 X50.744 Y85.295 E0.3056
G1 X50.764 Y84.804 E0.01634
G1 X50.799 Y84.393 E0.01372
G1 X50.762 Y81.034 E0.11173
G1 X50.795 Y80.378 E0.02185
G1 X50.901 Y79.755 E0.02102
G1 X51.104 Y78.879 E0.02991
G1 X51.291 Y78.249 E0.02186
G1 X51.553 Y77.647 E0.02184
G1 X51.89 Y77.076 E0.02205
G1 X52.668 Y75.924 E0.04624
G1 X53.068 Y75.403 E0.02185
G1 X53.756 Y74.74 E0.03178
G1 X54.331 Y74.277 E0.02455
M566 X1800 Y1800
G0 F3600 X54.582 Y74.589
M566 X1200 Y1200
G1 F1500 X55.314 Y74.099 E0.0293
G1 X55.914 Y73.77 E0.02276
G1 X56.759 Y73.403 E0.03064
G1 X57.329 Y73.216 E0.01995
G1 X57.941 Y73.057 E0.02103
G1 X58.511 Y72.981 E0.01913
G1 X59.819 Y72.882 E0.04363
G1 X60.451 Y72.874 E0.02102
G1 X60.951 Y72.932 E0.01674
G1 X64.045 Y72.859 E0.10294
G1 X64.385 Y72.863 E0.01131
G1 X65.322 Y72.905 E0.0312
G1 X66.381 Y72.863 E0.03525
G1 X66.983 Y72.875 E0.02003
G1 X67.472 Y72.915 E0.01632
G1 X77.152 Y72.858 E0.32196
G1 X77.351 Y72.861 E0.00662
G1 X78.793 Y72.91 E0.04799
G1 X79.844 Y72.862 E0.03499
G1 X80.337 Y72.864 E0.0164
G1 X81.291 Y72.915 E0.03178
G1 X82.874 Y72.862 E0.05268
G1 X83.466 Y72.877 E0.0197
G1 X83.923 Y72.916 E0.01526
G1 X91.007 Y72.859 E0.23562
G1 X91.45 Y72.875 E0.01474
G1 X91.853 Y72.908 E0.01345
G1 X93.373 Y72.861 E0.05058
G1 X93.94 Y72.876 E0.01887
G1 X94.397 Y72.914 E0.01525
G1 X100.49 Y72.859 E0.20266
G1 X100.533 Y72.859 E0.00143
G1 X107.129 Y72.857 E0.21938
G1 X107.309 Y72.86 E0.00599
G1 X108.855 Y72.915 E0.05145
G1 X115.562 Y72.857 E0.22308
G1 X115.866 Y72.864 E0.01011
G1 X116.84 Y72.915 E0.03244
G1 X125.016 Y72.856 E0.27194
G1 X125.306 Y72.862 E0.00965
G1 X126.307 Y72.913 E0.03334
G1 X133.464 Y72.859 E0.23805
G1 X133.904 Y72.875 E0.01464
G1 X134.37 Y72.913 E0.01555
G1 X142.978 Y72.858 E0.28631
G1 X143.264 Y72.864 E0.00951
G1 X144.272 Y72.915 E0.03357
G1 X156.491 Y72.858 E0.40641
G1 X156.754 Y72.864 E0.00875
G1 X157.704 Y72.91 E0.03163
G1 X159.503 Y72.858 E0.05986
G1 X159.744 Y72.857 E0.00802
G1 X160.713 Y72.876 E0.03224
G1 X161.343 Y72.928 E0.02103
G1 X161.994 Y73.069 E0.02215
G1 X163.242 Y73.427 E0.04318
G1 X163.837 Y73.639 E0.02101
G1 X164.401 Y73.925 E0.02103
G1 X164.674 Y74.098 E0.01075
G1 X165.577 Y74.712 E0.03632
G1 X166.077 Y75.1 E0.02105
G1 X166.525 Y75.55 E0.02112
G1 X166.961 Y76.047 E0.02199
G1 X167.347 Y76.547 E0.02101
G1 X167.666 Y77.093 E0.02103
G1 X167.867 Y77.546 E0.01648
G1 X168.35 Y78.799 E0.04466
G1 X168.598 Y79.669 E0.03009
G1 X168.765 Y80.553 E0.02992
G1 X168.843 Y81.18 E0.02101
G1 X168.849 Y81.656 E0.01583
G1 X168.8 Y83.068 E0.04699
G1 X168.856 Y94.283 E0.37302
G1 X168.856 Y94.335 E0.00173
G1 X168.802 Y104.438 E0.33603
G1 X168.85 Y105.555 E0.03719
G1 X168.838 Y106.182 E0.02086
G1 X168.802 Y106.618 E0.01455
G1 X168.857 Y117.741 E0.36996
G1 X168.856 Y117.838 E0.00323
G1 X168.804 Y121.403 E0.11858
G1 X168.853 Y122.55 E0.03818
G1 X168.84 Y123.178 E0.02089
G1 X168.803 Y123.626 E0.01495
G1 X168.841 Y138.005 E0.47825
G1 X168.81 Y138.527 E0.01739
G1 X168.835 Y138.794 E0.00892
G1 X168.816 Y139.426 E0.02103
G1 X168.747 Y139.906 E0.01613
G1 X168.592 Y140.706 E0.0271
G1 X168.432 Y141.318 E0.02104
G1 X168.069 Y142.156 E0.03037
G1 X167.608 Y142.998 E0.03193
G1 X167.27 Y143.532 E0.02102
G1 X166.826 Y144.063 E0.02302
G1 X165.999 Y144.923 E0.03968
G1 X165.533 Y145.35 E0.02102
G1 X165.017 Y145.715 E0.02102
G1 X164.562 Y145.963 E0.01724
G1 X163.387 Y146.528 E0.04336
G1 X162.801 Y146.765 E0.02102
G1 X162.19 Y146.927 E0.02102
G1 X161.563 Y147.01 E0.02104
G1 X161.276 Y147.012 E0.00955
G1 X161.148 Y147.038 E0.00434
G1 X160.522 Y147.126 E0.02103
G1 X159.89 Y147.134 E0.02102
G1 X159.601 Y147.099 E0.00968
G1 X158.959 Y147.143 E0.0214
G1 X152.324 Y147.144 E0.22068
G1 X152.139 Y147.141 E0.00615
G1 X150.642 Y147.086 E0.04982
G1 X149.039 Y147.137 E0.05334
G1 X148.438 Y147.12 E0.02
G1 X148.014 Y147.082 E0.01416
G1 X141.913 Y147.142 E0.20293
G1 X141.455 Y147.125 E0.01524
G1 X140.984 Y147.086 E0.01572
G1 X131.762 Y147.143 E0.30673
G1 X131.554 Y147.14 E0.00692
G1 X129.938 Y147.083 E0.05378
G1 X120.621 Y147.143 E0.30989
G1 X120.329 Y147.136 E0.00971
G1 X119.381 Y147.087 E0.03157
G1 X106.649 Y147.143 E0.42347
G1 X106.375 Y147.137 E0.00912
G1 X105.376 Y147.087 E0.03327
G1 X91.548 Y147.144 E0.45993
G1 X91.266 Y147.137 E0.00938
G1 X90.267 Y147.085 E0.03327
G1 X79.523 Y147.142 E0.35735
G1 X79.242 Y147.136 E0.00935
G1 X78.238 Y147.085 E0.03344
G1 X69.55 Y147.144 E0.28897
G1 X69.344 Y147.141 E0.00685
