;FLAVOR:RepRap
;TIME:12501
;Filament used: 8.71009m
;Layer height: 0.15
;Generated with Cura_SteamEngine 3.5.1
T0
M82 ;absolute extrusion mode
; Ender 3 Custom Start G-code
M104 S200 ; Set Extruder temperature
M140 S60 ; Set Heat Bed temperature
M190 S60 ; Wait for Heat Bed temperature
M109 S200 ; Wait for Extruder temperature
G28 ; Home all axes
G92 E0 ; Reset Extruder
G1 Z5.0 F3000 ; Move Z Axis up little to prevent scratching of Heat Bed
G1 X0.1 Y20 Z0.3 F5000.0 ; Move to start position
G1 X0.1 Y200.0 Z0.3 F1500.0 E15 ; Draw the first line
G1 X0.4 Y200.0 Z0.3 F5000.0 ; Move to side a little
G1 X0.4 Y20 Z0.3 F1500.0 E30 ; Draw the second line
G92 E0 ; Reset Extruder
G1 Z5.0 F3000 ; Move Z Axis up little to prevent scratching of Heat Bed
M83 ;relative extrusion mode
G1 F2400 E-5
;LAYER_COUNT:127
;LAYER:0
M107
M204 T5000
M566 X1800 Y1800
G0 F3600 X54.334 Y73.785 Z0.2
M204 P500
M566 X1200 Y1200
;TYPE:SKIRT
G1 F2400 E5
G1 F1800 X54.897 Y73.402 E0.02265
G1 X55.641 Y73.025 E0.02774
G1 X56.454 Y72.685 E0.02931
G1 X57.097 Y72.46 E0.02266
G1 X57.626 Y72.335 E0.01808
G1 X58.503 Y72.171 E0.02967
G1 X59.178 Y72.085 E0.02263
G1 X59.571 Y72.072 E0.01308
G1 X160.7 Y72.107 E3.36356
G1 X161.38 Y72.147 E0.02266
G1 X161.88 Y72.229 E0.01685
G1 X162.471 Y72.352 E0.02008
G1 X163.128 Y72.529 E0.02263
G1 X163.49 Y72.664 E0.01285
G1 X164.302 Y72.997 E0.02919
G1 X164.915 Y73.292 E0.02263
G1 X165.618 Y73.751 E0.02792
G1 X166.317 Y74.284 E0.02924
G1 X166.833 Y74.728 E0.02264
G1 X167.39 Y75.35 E0.02777
G1 X167.93 Y76.049 E0.02938
G1 X168.314 Y76.611 E0.02264
G1 X168.692 Y77.36 E0.0279
G1 X169.031 Y78.172 E0.02927
G1 X169.256 Y78.815 E0.02266
G1 X169.38 Y79.337 E0.01784
G1 X169.544 Y80.211 E0.02958
G1 X169.63 Y80.887 E0.02267
G1 X169.643 Y81.285 E0.01324
G1 X169.608 Y138.988 E1.91921
G1 X169.568 Y139.667 E0.02262
G1 X169.486 Y140.17 E0.01695
G1 X169.363 Y140.759 E0.02001
G1 X169.184 Y141.416 E0.02265
G1 X169.052 Y141.771 E0.0126
G1 X168.719 Y142.584 E0.02922
G1 X168.425 Y143.198 E0.02264
G1 X167.964 Y143.903 E0.02802
G1 X167.431 Y144.602 E0.02924
G1 X166.987 Y145.118 E0.02264
G1 X166.364 Y145.676 E0.02782
G1 X165.666 Y146.215 E0.02933
G1 X165.103 Y146.598 E0.02265
G1 X164.359 Y146.975 E0.02774
G1 X163.546 Y147.315 E0.02931
G1 X162.903 Y147.54 E0.02266
G1 X162.374 Y147.665 E0.01808
G1 X161.497 Y147.829 E0.02967
G1 X160.822 Y147.915 E0.02263
G1 X160.429 Y147.928 E0.01308
G1 X59.299 Y147.893 E3.3636
G1 X58.619 Y147.853 E0.02266
G1 X58.117 Y147.771 E0.01692
G1 X57.527 Y147.648 E0.02005
G1 X56.87 Y147.47 E0.02264
G1 X56.51 Y147.336 E0.01278
G1 X55.698 Y147.003 E0.02919
G1 X55.085 Y146.708 E0.02263
G1 X54.382 Y146.249 E0.02792
G1 X53.683 Y145.716 E0.02924
G1 X53.167 Y145.272 E0.02264
G1 X52.61 Y144.65 E0.02777
G1 X52.07 Y143.951 E0.02938
G1 X51.686 Y143.389 E0.02264
G1 X51.308 Y142.64 E0.0279
G1 X50.969 Y141.828 E0.02927
G1 X50.744 Y141.185 E0.02266
G1 X50.62 Y140.663 E0.01784
G1 X50.456 Y139.789 E0.02958
G1 X50.37 Y139.113 E0.02267
G1 X50.357 Y138.715 E0.01324
G1 X50.392 Y81.012 E1.91921
G1 X50.432 Y80.333 E0.02262
G1 X50.514 Y79.83 E0.01695
G1 X50.637 Y79.241 E0.02001
G1 X50.816 Y78.584 E0.02265
G1 X50.948 Y78.229 E0.0126
G1 X51.281 Y77.416 E0.02922
G1 X51.575 Y76.802 E0.02264
G1 X52.036 Y76.097 E0.02802
G1 X52.569 Y75.398 E0.02924
G1 X53.013 Y74.882 E0.02264
G1 X53.636 Y74.324 E0.02782
G1 X54.334 Y73.785 E0.02933
M566 X1800 Y1800
G0 F3600 X54.579 Y74.102
M566 X1200 Y1200
G1 F1800 X55.122 Y73.733 E0.02184
G1 X55.796 Y73.394 E0.02509
G1 X56.609 Y73.054 E0.02931
G1 X57.229 Y72.838 E0.02184
G1 X57.699 Y72.728 E0.01605
G1 X58.576 Y72.564 E0.02967
G1 X59.228 Y72.483 E0.02185
G1 X59.571 Y72.472 E0.01141
G1 X160.7 Y72.507 E3.36356
G1 X161.356 Y72.547 E0.02186
G1 X161.798 Y72.62 E0.0149
G1 X162.389 Y72.743 E0.02008
G1 X163.023 Y72.916 E0.02186
G1 X163.338 Y73.034 E0.01119
G1 X164.15 Y73.367 E0.02919
G1 X164.741 Y73.653 E0.02184
G1 X165.375 Y74.069 E0.02522
G1 X166.074 Y74.602 E0.02924
G1 X166.572 Y75.031 E0.02186
G1 X167.073 Y75.595 E0.02509
G1 X167.613 Y76.294 E0.02938
G1 X167.983 Y76.837 E0.02185
G1 X168.323 Y77.515 E0.02523
G1 X168.662 Y78.327 E0.02927
G1 X168.878 Y78.947 E0.02184
G1 X168.986 Y79.411 E0.01585
G1 X169.15 Y80.285 E0.02958
G1 X169.232 Y80.937 E0.02186
G1 X169.243 Y81.284 E0.01155
G1 X169.208 Y138.987 E1.91921
G1 X169.168 Y139.643 E0.02186
G1 X169.094 Y140.088 E0.015
G1 X168.971 Y140.677 E0.02001
G1 X168.798 Y141.311 E0.02186
G1 X168.682 Y141.62 E0.01098
G1 X168.349 Y142.433 E0.02922
G1 X168.064 Y143.024 E0.02182
G1 X167.646 Y143.66 E0.02531
G1 X167.113 Y144.359 E0.02924
G1 X166.684 Y144.857 E0.02186
G1 X166.119 Y145.359 E0.02514
G1 X165.421 Y145.898 E0.02933
G1 X164.878 Y146.267 E0.02184
G1 X164.204 Y146.606 E0.02509
G1 X163.391 Y146.946 E0.02931
G1 X162.771 Y147.162 E0.02184
G1 X162.301 Y147.272 E0.01605
G1 X161.424 Y147.436 E0.02967
G1 X160.772 Y147.517 E0.02185
G1 X160.429 Y147.528 E0.01141
G1 X59.299 Y147.493 E3.3636
G1 X58.643 Y147.453 E0.02186
G1 X58.199 Y147.379 E0.01497
G1 X57.609 Y147.256 E0.02005
G1 X56.975 Y147.083 E0.02186
G1 X56.662 Y146.966 E0.01111
G1 X55.85 Y146.633 E0.02919
G1 X55.259 Y146.347 E0.02184
G1 X54.625 Y145.931 E0.02522
G1 X53.926 Y145.398 E0.02924
G1 X53.428 Y144.969 E0.02186
G1 X52.927 Y144.405 E0.02509
G1 X52.387 Y143.706 E0.02938
G1 X52.017 Y143.163 E0.02185
G1 X51.677 Y142.485 E0.02523
G1 X51.338 Y141.673 E0.02927
G1 X51.122 Y141.053 E0.02184
G1 X51.014 Y140.589 E0.01585
G1 X50.85 Y139.715 E0.02958
G1 X50.768 Y139.063 E0.02186
G1 X50.757 Y138.716 E0.01155
G1 X50.792 Y81.013 E1.91921
G1 X50.832 Y80.357 E0.02186
G1 X50.906 Y79.912 E0.015
G1 X51.029 Y79.323 E0.02001
G1 X51.202 Y78.689 E0.02186
G1 X51.318 Y78.38 E0.01098
G1 X51.651 Y77.567 E0.02922
G1 X51.936 Y76.976 E0.02182
G1 X52.354 Y76.34 E0.02531
G1 X52.887 Y75.641 E0.02924
G1 X53.316 Y75.143 E0.02186
G1 X53.881 Y74.641 E0.02514
G1 X54.579 Y74.102 E0.02933
M566 X1800 Y1800
G0 F3600 X54.823 Y74.419
M566 X1200 Y1200
G1 F1800 X55.347 Y74.065 E0.02103
G1 X55.95 Y73.763 E0.02243
G1 X56.763 Y73.423 E0.02931
G1 X57.36 Y73.217 E0.02101
G1 X57.773 Y73.121 E0.0141
G1 X58.65 Y72.957 E0.02967
G1 X59.571 Y72.872 E0.03076
G1 X160.7 Y72.907 E3.36356
G1 X161.331 Y72.947 E0.02103
G1 X161.717 Y73.012 E0.01302
G1 X162.308 Y73.135 E0.02008
G1 X163.186 Y73.404 E0.03054
G1 X163.998 Y73.737 E0.02919
G1 X164.567 Y74.013 E0.02103
G1 X165.133 Y74.387 E0.02256
G1 X165.832 Y74.92 E0.02924
G1 X166.309 Y75.334 E0.02101
G1 X166.757 Y75.839 E0.02245
G1 X167.297 Y76.538 E0.02938
G1 X167.651 Y77.062 E0.02103
G1 X167.954 Y77.669 E0.02256
G1 X168.293 Y78.481 E0.02927
G1 X168.499 Y79.078 E0.02101
G1 X168.593 Y79.485 E0.01389
G1 X168.757 Y80.359 E0.02958
G1 X168.843 Y81.284 E0.0309
G1 X168.808 Y138.987 E1.91921
G1 X168.768 Y139.618 E0.02103
G1 X168.702 Y140.006 E0.01309
G1 X168.579 Y140.595 E0.02001
G1 X168.312 Y141.468 E0.03036
G1 X167.979 Y142.281 E0.02922
G1 X167.703 Y142.85 E0.02103
G1 X167.328 Y143.418 E0.02264
G1 X166.795 Y144.117 E0.02924
G1 X166.381 Y144.594 E0.02101
G1 X165.875 Y145.042 E0.02248
G1 X165.177 Y145.581 E0.02933
G1 X164.653 Y145.935 E0.02103
G1 X164.05 Y146.237 E0.02243
G1 X163.237 Y146.577 E0.02931
G1 X162.64 Y146.783 E0.02101
G1 X162.227 Y146.879 E0.0141
G1 X161.35 Y147.043 E0.02967
G1 X160.429 Y147.128 E0.03076
G1 X59.299 Y147.093 E3.3636
G1 X58.668 Y147.053 E0.02103
G1 X58.281 Y146.988 E0.01305
G1 X57.691 Y146.865 E0.02005
G1 X56.814 Y146.596 E0.03051
G1 X56.002 Y146.263 E0.02919
G1 X55.433 Y145.987 E0.02103
G1 X54.867 Y145.613 E0.02256
G1 X54.168 Y145.08 E0.02924
G1 X53.691 Y144.666 E0.02101
G1 X53.243 Y144.161 E0.02245
G1 X52.703 Y143.462 E0.02938
G1 X52.349 Y142.938 E0.02103
G1 X52.046 Y142.331 E0.02256
G1 X51.707 Y141.519 E0.02927
G1 X51.501 Y140.922 E0.02101
G1 X51.407 Y140.515 E0.01389
G1 X51.243 Y139.641 E0.02958
G1 X51.157 Y138.716 E0.0309
G1 X51.192 Y81.013 E1.91921
G1 X51.232 Y80.382 E0.02103
G1 X51.298 Y79.994 E0.01309
G1 X51.421 Y79.405 E0.02001
G1 X51.688 Y78.532 E0.03036
G1 X52.021 Y77.719 E0.02922
G1 X52.297 Y77.15 E0.02103
G1 X52.672 Y76.582 E0.02264
G1 X53.205 Y75.883 E0.02924
G1 X53.619 Y75.406 E0.02101
G1 X54.125 Y74.958 E0.02248
G1 X54.823 Y74.419 E0.02933
M566 X1800 Y1800
G0 F3600 X55.068 Y74.735
M566 X1200 Y1200
G1 F1800 X55.571 Y74.397 E0.02016
G1 X56.104 Y74.132 E0.0198
G1 X56.917 Y73.792 E0.02931
G1 X57.491 Y73.596 E0.02017
G1 X57.846 Y73.514 E0.01212
G1 X58.723 Y73.35 E0.02967
G1 X59.571 Y73.272 E0.02832
G1 X160.7 Y73.307 E3.36356
G1 X161.305 Y73.347 E0.02017
G1 X161.635 Y73.403 E0.01113
G1 X162.226 Y73.526 E0.02008
G1 X163.034 Y73.774 E0.02811
G1 X163.846 Y74.107 E0.02919
G1 X164.391 Y74.374 E0.02019
G1 X164.89 Y74.705 E0.01992
G1 X165.589 Y75.238 E0.02924
G1 X166.046 Y75.637 E0.02018
G1 X166.44 Y76.084 E0.01982
G1 X166.98 Y76.783 E0.02938
G1 X167.318 Y77.286 E0.02016
G1 X167.585 Y77.823 E0.01995
G1 X167.924 Y78.635 E0.02927
G1 X168.12 Y79.208 E0.02014
G1 X168.2 Y79.559 E0.01197
G1 X168.364 Y80.433 E0.02958
G1 X168.443 Y81.284 E0.02843
G1 X168.408 Y138.987 E1.91921
G1 X168.368 Y139.592 E0.02017
G1 X168.311 Y139.924 E0.0112
G1 X168.188 Y140.513 E0.02001
G1 X167.942 Y141.317 E0.02796
G1 X167.609 Y142.13 E0.02922
G1 X167.342 Y142.674 E0.02016
G1 X167.01 Y143.175 E0.01999
G1 X166.477 Y143.874 E0.02924
G1 X166.078 Y144.331 E0.02018
G1 X165.63 Y144.726 E0.01987
G1 X164.932 Y145.265 E0.02933
G1 X164.429 Y145.603 E0.02016
G1 X163.896 Y145.868 E0.0198
G1 X163.083 Y146.208 E0.02931
G1 X162.509 Y146.404 E0.02017
G1 X162.154 Y146.486 E0.01212
G1 X161.277 Y146.65 E0.02967
G1 X160.429 Y146.728 E0.02832
G1 X59.299 Y146.693 E3.3636
G1 X58.694 Y146.653 E0.02017
G1 X58.362 Y146.596 E0.0112
G1 X57.772 Y146.473 E0.02005
G1 X56.966 Y146.226 E0.02804
G1 X56.154 Y145.893 E0.02919
G1 X55.609 Y145.626 E0.02019
G1 X55.11 Y145.295 E0.01992
G1 X54.411 Y144.762 E0.02924
G1 X53.954 Y144.363 E0.02018
G1 X53.56 Y143.916 E0.01982
G1 X53.02 Y143.217 E0.02938
G1 X52.682 Y142.714 E0.02016
G1 X52.415 Y142.177 E0.01995
G1 X52.076 Y141.365 E0.02927
G1 X51.88 Y140.792 E0.02014
G1 X51.8 Y140.441 E0.01197
G1 X51.636 Y139.567 E0.02958
G1 X51.557 Y138.716 E0.02843
G1 X51.592 Y81.013 E1.91921
G1 X51.632 Y80.408 E0.02017
G1 X51.689 Y80.076 E0.0112
G1 X51.812 Y79.487 E0.02001
G1 X52.058 Y78.683 E0.02796
G1 X52.391 Y77.87 E0.02922
G1 X52.658 Y77.326 E0.02016
G1 X52.99 Y76.825 E0.01999
G1 X53.523 Y76.126 E0.02924
G1 X53.922 Y75.669 E0.02018
G1 X54.37 Y75.274 E0.01987
G1 X55.068 Y74.735 E0.02933
M566 X1800 Y1800
G0 F3600 X55.312 Y75.052
M566 X1200 Y1200
G1 F1800 X55.794 Y74.73 E0.01928
G1 X56.259 Y74.501 E0.01724
G1 X57.072 Y74.161 E0.02931
G1 X57.62 Y73.975 E0.01925
G1 X57.92 Y73.908 E0.01022
G1 X58.797 Y73.744 E0.02967
G1 X59.57 Y73.672 E0.02582
G1 X160.699 Y73.707 E3.36356
G1 X161.554 Y73.795 E0.02859
G1 X162.145 Y73.918 E0.02008
G1 X162.883 Y74.144 E0.02567
G1 X163.695 Y74.477 E0.02919
G1 X164.214 Y74.733 E0.01925
G1 X164.648 Y75.023 E0.01736
G1 X165.347 Y75.556 E0.02924
G1 X165.782 Y75.938 E0.01925
G1 X166.124 Y76.328 E0.01725
G1 X166.664 Y77.027 E0.02938
G1 X166.985 Y77.509 E0.01926
G1 X167.216 Y77.977 E0.01736
G1 X167.555 Y78.789 E0.02927
G1 X167.741 Y79.338 E0.01928
G1 X167.807 Y79.632 E0.01002
G1 X167.971 Y80.506 E0.02958
G1 X168.043 Y81.284 E0.02599
G1 X168.008 Y138.987 E1.91921
G1 X167.919 Y139.843 E0.02862
G1 X167.796 Y140.432 E0.02001
G1 X167.572 Y141.165 E0.02549
G1 X167.239 Y141.978 E0.02922
G1 X166.983 Y142.498 E0.01928
G1 X166.692 Y142.933 E0.01741
G1 X166.159 Y143.632 E0.02924
G1 X165.777 Y144.067 E0.01925
G1 X165.386 Y144.409 E0.01728
G1 X164.688 Y144.948 E0.02933
G1 X164.206 Y145.27 E0.01928
G1 X163.741 Y145.499 E0.01724
G1 X162.928 Y145.839 E0.02931
G1 X162.38 Y146.025 E0.01925
G1 X162.08 Y146.092 E0.01022
G1 X161.203 Y146.256 E0.02967
G1 X160.43 Y146.328 E0.02582
G1 X59.3 Y146.293 E3.3636
G1 X58.444 Y146.205 E0.02862
G1 X57.854 Y146.082 E0.02005
G1 X57.117 Y145.856 E0.02564
G1 X56.305 Y145.523 E0.02919
G1 X55.786 Y145.267 E0.01925
G1 X55.352 Y144.977 E0.01736
G1 X54.653 Y144.444 E0.02924
G1 X54.218 Y144.062 E0.01925
G1 X53.876 Y143.672 E0.01725
G1 X53.336 Y142.973 E0.02938
G1 X53.015 Y142.491 E0.01926
G1 X52.784 Y142.023 E0.01736
G1 X52.445 Y141.211 E0.02927
G1 X52.259 Y140.662 E0.01928
G1 X52.193 Y140.368 E0.01002
G1 X52.029 Y139.494 E0.02958
G1 X51.957 Y138.716 E0.02599
G1 X51.992 Y81.013 E1.91921
G1 X52.081 Y80.157 E0.02862
G1 X52.204 Y79.568 E0.02001
G1 X52.428 Y78.835 E0.02549
G1 X52.761 Y78.022 E0.02922
G1 X53.017 Y77.502 E0.01928
G1 X53.308 Y77.067 E0.01741
G1 X53.841 Y76.368 E0.02924
G1 X54.223 Y75.933 E0.01925
G1 X54.614 Y75.591 E0.01728
G1 X55.312 Y75.052 E0.02933
M566 X1800 Y1800
G0 F3600 X55.556 Y75.368
M566 X1200 Y1200
G1 F1800 X56.016 Y75.064 E0.01834
G1 X56.413 Y74.87 E0.0147
G1 X57.226 Y74.53 E0.02931
G1 X57.994 Y74.301 E0.02666
G1 X58.871 Y74.137 E0.02967
G1 X59.57 Y74.072 E0.02335
G1 X160.699 Y74.107 E3.36356
G1 X161.472 Y74.187 E0.02585
G1 X162.063 Y74.31 E0.02008
G1 X162.731 Y74.514 E0.02323
G1 X163.543 Y74.847 E0.02919
G1 X164.036 Y75.093 E0.01833
G1 X164.405 Y75.341 E0.01479
G1 X165.104 Y75.874 E0.02924
G1 X165.517 Y76.239 E0.01833
G1 X165.807 Y76.573 E0.01471
G1 X166.347 Y77.272 E0.02938
G1 X166.652 Y77.731 E0.01833
G1 X166.847 Y78.131 E0.0148
G1 X167.186 Y78.943 E0.02927
G1 X167.414 Y79.706 E0.02649
G1 X167.578 Y80.58 E0.02958
G1 X167.643 Y81.283 E0.02348
G1 X167.608 Y138.986 E1.91921
G1 X167.528 Y139.761 E0.02591
G1 X167.405 Y140.35 E0.02001
G1 X167.201 Y141.013 E0.02307
G1 X166.868 Y141.826 E0.02922
G1 X166.623 Y142.32 E0.01834
G1 X166.374 Y142.69 E0.01483
G1 X165.841 Y143.389 E0.02924
G1 X165.476 Y143.802 E0.01833
G1 X165.142 Y144.093 E0.01473
G1 X164.444 Y144.632 E0.02933
G1 X163.984 Y144.936 E0.01834
G1 X163.587 Y145.13 E0.0147
G1 X162.774 Y145.47 E0.02931
G1 X162.006 Y145.699 E0.02666
G1 X161.129 Y145.863 E0.02967
G1 X160.43 Y145.928 E0.02335
G1 X59.3 Y145.893 E3.3636
G1 X58.525 Y145.813 E0.02591
G1 X57.935 Y145.69 E0.02005
G1 X57.269 Y145.486 E0.02317
G1 X56.457 Y145.153 E0.02919
G1 X55.964 Y144.907 E0.01833
G1 X55.595 Y144.659 E0.01479
G1 X54.896 Y144.126 E0.02924
G1 X54.483 Y143.761 E0.01833
G1 X54.193 Y143.427 E0.01471
G1 X53.653 Y142.728 E0.02938
G1 X53.348 Y142.269 E0.01833
G1 X53.153 Y141.869 E0.0148
G1 X52.814 Y141.057 E0.02927
G1 X52.586 Y140.294 E0.02649
G1 X52.422 Y139.42 E0.02958
G1 X52.357 Y138.717 E0.02348
G1 X52.392 Y81.014 E1.91921
G1 X52.472 Y80.239 E0.02591
G1 X52.595 Y79.65 E0.02001
G1 X52.799 Y78.987 E0.02307
G1 X53.132 Y78.174 E0.02922
G1 X53.377 Y77.68 E0.01834
G1 X53.626 Y77.31 E0.01483
G1 X54.159 Y76.611 E0.02924
G1 X54.524 Y76.198 E0.01833
G1 X54.858 Y75.907 E0.01473
G1 X55.556 Y75.368 E0.02933
M566 X1800 Y1800
G0 F3600 X55.801 Y75.685
M566 X1200 Y1200
G1 F1800 X56.237 Y75.399 E0.01734
G1 X56.567 Y75.239 E0.0122
G1 X57.38 Y74.899 E0.02931
G1 X58.067 Y74.694 E0.02385
G1 X58.944 Y74.53 E0.02967
G1 X59.57 Y74.472 E0.02091
G1 X160.699 Y74.507 E3.36356
G1 X161.391 Y74.578 E0.02314
G1 X161.982 Y74.701 E0.02008
G1 X162.579 Y74.884 E0.02077
G1 X163.391 Y75.217 E0.02919
G1 X163.857 Y75.451 E0.01734
G1 X164.163 Y75.659 E0.01231
G1 X164.862 Y76.192 E0.02924
G1 X165.251 Y76.539 E0.01734
G1 X165.491 Y76.817 E0.01222
G1 X166.031 Y77.516 E0.02938
G1 X166.317 Y77.952 E0.01734
G1 X166.478 Y78.285 E0.0123
G1 X166.817 Y79.097 E0.02927
G1 X167.021 Y79.78 E0.02371
G1 X167.185 Y80.654 E0.02958
G1 X167.243 Y81.283 E0.02101
G1 X167.208 Y138.986 E1.91921
G1 X167.136 Y139.679 E0.02317
G1 X167.013 Y140.268 E0.02001
G1 X166.831 Y140.862 E0.02066
G1 X166.498 Y141.675 E0.02922
G1 X166.264 Y142.14 E0.01731
G1 X166.056 Y142.448 E0.01236
G1 X165.523 Y143.147 E0.02924
G1 X165.176 Y143.536 E0.01734
G1 X164.897 Y143.776 E0.01224
G1 X164.199 Y144.315 E0.02933
G1 X163.763 Y144.601 E0.01734
G1 X163.433 Y144.761 E0.0122
G1 X162.62 Y145.101 E0.02931
G1 X161.933 Y145.306 E0.02385
G1 X161.056 Y145.47 E0.02967
G1 X160.43 Y145.528 E0.02091
G1 X59.3 Y145.493 E3.3636
G1 X58.607 Y145.421 E0.02317
G1 X58.017 Y145.298 E0.02005
G1 X57.421 Y145.116 E0.02073
G1 X56.609 Y144.783 E0.02919
G1 X56.143 Y144.549 E0.01734
G1 X55.837 Y144.341 E0.01231
G1 X55.138 Y143.808 E0.02924
G1 X54.749 Y143.461 E0.01734
G1 X54.509 Y143.183 E0.01222
