;FLAVOR:Marlin
;TIME:9939
;Filament used: 7.26033m
;Layer height: 0.2
;Generated with Cura_SteamEngine 3.5.1
M82 ;absolute extrusion mode
; Ender 3 Custom Start G-code
M104 S200 ; Set Extruder temperature
M140 S60 ; Set Heat Bed temperature
M190 S60 ; Wait for Heat Bed temperature
M109 S200 ; Wait for Extruder temperature
G28 ; Home all axes
G92 E0 ; Reset Extruder
G1 Z5.0 F3000 ; Move Z Axis up little to prevent scratching of Heat Bed
G1 X0.1 Y20 Z0.3 F5000.0 ; Move to start position
G1 X0.1 Y200.0 Z0.3 F1500.0 E15 ; Draw the first line
G1 X0.4 Y200.0 Z0.3 F5000.0 ; Move to side a little
G1 X0.4 Y20 Z0.3 F1500.0 E30 ; Draw the second line
G92 E0 ; Reset Extruder
G1 Z5.0 F3000 ; Move Z Axis up little to prevent scratching of Heat Bed
G92 E0
G1 F4200 E-7
;LAYER_COUNT:80
;LAYER:0
M107
M204 S5000
M205 X30 Y30
G0 F3000 X54.406 Y73.786 Z0.15
M204 S500
;TYPE:SKIRT
G1 F4200 E0
G1 F1500 X54.971 Y73.406 E0.01699
G1 X55.714 Y73.036 E0.03769
G1 X56.519 Y72.705 E0.0594
G1 X57.163 Y72.483 E0.07639
G1 X57.967 Y72.319 E0.09686
G1 X58.824 Y72.206 E0.11843
G1 X59.582 Y72.156 E0.13738
G1 X160.429 Y72.157 E2.65301
G1 X161.21 Y72.21 E2.67254
G1 X162.078 Y72.328 E2.69439
G1 X162.746 Y72.459 E2.71137
G1 X163.536 Y72.725 E2.73217
G1 X164.339 Y73.061 E2.75388
G1 X164.95 Y73.36 E2.77085
G1 X165.648 Y73.823 E2.79174
G1 X166.336 Y74.355 E2.81344
G1 X166.849 Y74.802 E2.83041
G1 X167.402 Y75.428 E2.85125
G1 X167.93 Y76.121 E2.87298
G1 X168.31 Y76.686 E2.88997
G1 X168.682 Y77.434 E2.9108
G1 X169.012 Y78.238 E2.93248
G1 X169.233 Y78.882 E2.94947
G1 X169.396 Y79.679 E2.96976
G1 X169.509 Y80.533 E2.99125
G1 X169.559 Y81.294 E3.01027
G1 X169.557 Y138.714 E4.44262
G1 X169.505 Y139.489 E4.462
G1 X169.388 Y140.357 E4.48385
G1 X169.258 Y141.025 E4.50082
G1 X168.992 Y141.818 E4.52169
G1 X168.657 Y142.62 E4.54337
G1 X168.358 Y143.231 E4.56034
G1 X167.893 Y143.933 E4.58134
G1 X167.36 Y144.622 E4.60307
G1 X166.912 Y145.135 E4.62006
G1 X166.286 Y145.687 E4.64088
G1 X165.594 Y146.214 E4.66258
G1 X165.029 Y146.594 E4.67956
G1 X164.286 Y146.964 E4.70027
G1 X163.481 Y147.295 E4.72198
G1 X162.837 Y147.517 E4.73897
G1 X162.033 Y147.681 E4.75944
G1 X161.176 Y147.794 E4.781
G1 X160.418 Y147.844 E4.79995
G1 X59.571 Y147.842 E7.31559
G1 X58.796 Y147.79 E7.33497
G1 X57.928 Y147.673 E7.35682
G1 X57.26 Y147.543 E7.37379
G1 X56.464 Y147.275 E7.39474
G1 X55.661 Y146.939 E7.41646
G1 X55.05 Y146.64 E7.43343
G1 X54.352 Y146.177 E7.45432
G1 X53.664 Y145.645 E7.47601
G1 X53.151 Y145.198 E7.49299
G1 X52.598 Y144.572 E7.51382
G1 X52.07 Y143.879 E7.53556
G1 X51.69 Y143.314 E7.55254
G1 X51.318 Y142.566 E7.57338
G1 X50.988 Y141.762 E7.59506
G1 X50.767 Y141.118 E7.61205
G1 X50.604 Y140.321 E7.63234
G1 X50.491 Y139.467 E7.65383
G1 X50.441 Y138.706 E7.67285
G1 X50.443 Y81.286 E9.1052
G1 X50.495 Y80.511 E9.12457
G1 X50.612 Y79.643 E9.14642
G1 X50.742 Y78.975 E9.1634
G1 X51.008 Y78.182 E9.18426
G1 X51.343 Y77.38 E9.20594
G1 X51.642 Y76.769 E9.22291
G1 X52.107 Y76.067 E9.24392
G1 X52.64 Y75.378 E9.26565
G1 X53.088 Y74.865 E9.28264
G1 X53.714 Y74.313 E9.30346
G1 X54.406 Y73.786 E9.32515
M204 S5000
G0 F3000 X54.648 Y74.104
M204 S500
G1 F1500 X55.194 Y73.738 E9.34155
G1 X55.866 Y73.406 E9.36025
G1 X56.671 Y73.075 E9.38196
G1 X57.293 Y72.862 E9.39836
G1 X58.019 Y72.715 E9.41684
G1 X58.876 Y72.602 E9.4384
G1 X59.582 Y72.556 E9.45605
G1 X160.429 Y72.557 E11.97169
G1 X161.156 Y72.606 E11.98987
G1 X162.024 Y72.724 E12.01172
G1 X162.669 Y72.852 E12.02812
G1 X163.381 Y73.094 E12.04688
G1 X164.184 Y73.43 E12.06859
G1 X164.774 Y73.719 E12.08498
G1 X165.403 Y74.139 E12.10385
G1 X166.091 Y74.671 E12.12554
G1 X166.586 Y75.104 E12.14195
G1 X167.083 Y75.67 E12.16074
G1 X167.611 Y76.363 E12.18247
G1 X167.977 Y76.909 E12.19887
G1 X168.312 Y77.586 E12.21771
G1 X168.642 Y78.39 E12.23939
G1 X168.854 Y79.011 E12.25576
G1 X168.999 Y79.732 E12.2741
G1 X169.112 Y80.586 E12.29559
G1 X169.159 Y81.294 E12.31329
G1 X169.157 Y138.714 E13.74564
G1 X169.109 Y139.435 E13.76366
G1 X168.992 Y140.303 E13.78551
G1 X168.864 Y140.948 E13.80192
G1 X168.623 Y141.663 E13.82074
G1 X168.288 Y142.465 E13.84242
G1 X167.998 Y143.055 E13.85882
G1 X167.576 Y143.688 E13.8778
G1 X167.043 Y144.377 E13.89953
G1 X166.61 Y144.871 E13.91591
G1 X166.044 Y145.369 E13.93472
G1 X165.352 Y145.896 E13.95642
G1 X164.806 Y146.262 E13.97281
G1 X164.134 Y146.594 E13.99151
G1 X163.329 Y146.925 E14.01322
G1 X162.707 Y147.138 E14.02962
G1 X161.981 Y147.285 E14.0481
G1 X161.124 Y147.398 E14.06966
G1 X160.418 Y147.444 E14.08731
G1 X59.571 Y147.442 E16.60295
G1 X58.85 Y147.394 E16.62098
G1 X57.982 Y147.277 E16.64282
G1 X57.337 Y147.149 E16.65923
G1 X56.619 Y146.906 E16.67814
G1 X55.816 Y146.57 E16.69985
G1 X55.226 Y146.281 E16.71624
G1 X54.597 Y145.861 E16.7351
G1 X53.909 Y145.329 E16.7568
G1 X53.414 Y144.896 E16.7732
G1 X52.917 Y144.33 E16.79199
G1 X52.389 Y143.637 E16.81373
G1 X52.023 Y143.091 E16.83012
G1 X51.688 Y142.414 E16.84897
G1 X51.358 Y141.61 E16.87065
G1 X51.146 Y140.989 E16.88701
G1 X51.001 Y140.268 E16.90536
G1 X50.888 Y139.414 E16.92685
G1 X50.841 Y138.706 E16.94455
G1 X50.843 Y81.286 E18.3769
G1 X50.891 Y80.565 E18.39492
G1 X51.008 Y79.697 E18.41677
G1 X51.136 Y79.052 E18.43317
G1 X51.377 Y78.337 E18.452
G1 X51.712 Y77.535 E18.47368
G1 X52.002 Y76.945 E18.49008
G1 X52.424 Y76.312 E18.50905
G1 X52.957 Y75.623 E18.53078
G1 X53.39 Y75.129 E18.54717
G1 X53.956 Y74.631 E18.56598
G1 X54.648 Y74.104 E18.58767
M204 S5000
G0 F3000 X54.891 Y74.422
M204 S500
G1 F1500 X55.417 Y74.072 E18.60343
G1 X56.019 Y73.776 E18.62017
G1 X56.824 Y73.445 E18.64188
G1 X57.422 Y73.242 E18.65763
G1 X58.071 Y73.112 E18.67414
G1 X58.928 Y72.999 E18.69571
G1 X59.582 Y72.956 E18.71206
G1 X160.429 Y72.957 E21.22769
G1 X161.103 Y73.003 E21.24455
G1 X161.971 Y73.121 E21.2664
G1 X162.59 Y73.245 E21.28215
G1 X163.227 Y73.463 E21.29894
G1 X164.03 Y73.799 E21.32065
G1 X164.597 Y74.079 E21.33643
G1 X165.159 Y74.456 E21.35331
G1 X165.847 Y74.988 E21.37501
G1 X166.321 Y75.405 E21.39075
G1 X166.765 Y75.913 E21.40758
G1 X167.293 Y76.606 E21.42932
G1 X167.644 Y77.132 E21.44509
G1 X167.942 Y77.737 E21.46191
G1 X168.272 Y78.541 E21.48359
G1 X168.474 Y79.14 E21.49936
G1 X168.603 Y79.784 E21.51575
G1 X168.716 Y80.638 E21.53723
G1 X168.759 Y81.294 E21.55363
G1 X168.757 Y138.714 E22.98598
G1 X168.712 Y139.382 E23.00268
G1 X168.595 Y140.25 E23.02453
G1 X168.471 Y140.87 E23.0403
G1 X168.254 Y141.509 E23.05714
G1 X167.919 Y142.311 E23.07882
G1 X167.639 Y142.878 E23.09459
G1 X167.26 Y143.443 E23.11156
G1 X166.727 Y144.132 E23.13329
G1 X166.309 Y144.607 E23.14908
G1 X165.801 Y145.051 E23.16591
G1 X165.109 Y145.578 E23.18761
G1 X164.583 Y145.928 E23.20337
G1 X163.981 Y146.224 E23.2201
G1 X163.176 Y146.555 E23.24181
G1 X162.578 Y146.758 E23.25756
G1 X161.929 Y146.888 E23.27408
G1 X161.072 Y147.001 E23.29564
G1 X160.418 Y147.044 E23.31199
G1 X59.571 Y147.042 E25.82763
G1 X58.903 Y146.997 E25.84433
G1 X58.035 Y146.88 E25.86618
G1 X57.415 Y146.756 E25.88195
G1 X56.773 Y146.537 E25.89887
G1 X55.97 Y146.201 E25.92058
G1 X55.403 Y145.921 E25.93636
G1 X54.841 Y145.544 E25.95324
G1 X54.153 Y145.012 E25.97493
G1 X53.679 Y144.595 E25.99068
G1 X53.235 Y144.087 E26.00751
G1 X52.707 Y143.394 E26.02924
G1 X52.356 Y142.868 E26.04502
G1 X52.058 Y142.263 E26.06184
G1 X51.728 Y141.459 E26.08352
G1 X51.526 Y140.86 E26.09929
G1 X51.397 Y140.216 E26.11567
G1 X51.284 Y139.362 E26.13716
G1 X51.241 Y138.706 E26.15356
G1 X51.243 Y81.286 E27.58591
G1 X51.288 Y80.618 E27.60261
G1 X51.405 Y79.75 E27.62446
G1 X51.529 Y79.13 E27.64023
G1 X51.746 Y78.491 E27.65707
G1 X52.081 Y77.689 E27.67875
G1 X52.361 Y77.122 E27.69452
G1 X52.74 Y76.557 E27.71149
G1 X53.273 Y75.868 E27.73322
G1 X53.691 Y75.393 E27.74901
G1 X54.199 Y74.949 E27.76584
G1 X54.891 Y74.422 E27.78753
M204 S5000
G0 F3000 X55.133 Y74.74
M204 S500
G1 F1500 X55.639 Y74.406 E27.80266
G1 X56.171 Y74.146 E27.81743
G1 X56.976 Y73.815 E27.83914
G1 X57.55 Y73.621 E27.85425
G1 X58.124 Y73.508 E27.86885
G1 X58.981 Y73.395 E27.89041
G1 X59.582 Y73.356 E27.90543
G1 X160.429 Y73.357 E30.42107
G1 X161.049 Y73.399 E30.43657
G1 X161.917 Y73.517 E30.45843
G1 X162.511 Y73.638 E30.47355
G1 X163.073 Y73.832 E30.48838
G1 X163.876 Y74.168 E30.51009
G1 X164.418 Y74.438 E30.5252
G1 X164.914 Y74.772 E30.54011
G1 X165.602 Y75.304 E30.56181
G1 X166.056 Y75.706 E30.57693
G1 X166.447 Y76.155 E30.59179
G1 X166.975 Y76.848 E30.61352
G1 X167.31 Y77.354 E30.62866
G1 X167.571 Y77.889 E30.64351
G1 X167.901 Y78.693 E30.66519
G1 X168.094 Y79.268 E30.68032
G1 X168.206 Y79.837 E30.69478
G1 X168.319 Y80.691 E30.71627
G1 X168.359 Y81.294 E30.73135
G1 X168.357 Y138.714 E32.16369
G1 X168.316 Y139.328 E32.17904
G1 X168.199 Y140.196 E32.20089
G1 X168.078 Y140.791 E32.21604
G1 X167.885 Y141.355 E32.23091
G1 X167.55 Y142.157 E32.25259
G1 X167.28 Y142.7 E32.26772
G1 X166.943 Y143.199 E32.28274
G1 X166.41 Y143.888 E32.30447
G1 X166.009 Y144.342 E32.31958
G1 X165.559 Y144.733 E32.33445
G1 X164.867 Y145.26 E32.35615
G1 X164.361 Y145.594 E32.37127
G1 X163.829 Y145.854 E32.38604
G1 X163.024 Y146.185 E32.40775
G1 X162.45 Y146.379 E32.42287
G1 X161.876 Y146.492 E32.43746
G1 X161.019 Y146.605 E32.45902
G1 X160.418 Y146.644 E32.47405
G1 X59.571 Y146.642 E34.98968
G1 X58.957 Y146.601 E35.00504
G1 X58.089 Y146.484 E35.02688
G1 X57.494 Y146.363 E35.04203
G1 X56.927 Y146.168 E35.05699
G1 X56.124 Y145.832 E35.0787
G1 X55.582 Y145.562 E35.09381
G1 X55.086 Y145.228 E35.10872
G1 X54.398 Y144.696 E35.13042
G1 X53.944 Y144.294 E35.14554
G1 X53.553 Y143.845 E35.1604
G1 X53.025 Y143.152 E35.18213
G1 X52.69 Y142.646 E35.19727
G1 X52.429 Y142.111 E35.21211
G1 X52.099 Y141.307 E35.23379
G1 X51.906 Y140.732 E35.24892
G1 X51.794 Y140.163 E35.26339
G1 X51.681 Y139.309 E35.28488
G1 X51.641 Y138.706 E35.29995
G1 X51.643 Y81.286 E36.7323
G1 X51.684 Y80.672 E36.74765
G1 X51.801 Y79.804 E36.7695
G1 X51.922 Y79.209 E36.78465
G1 X52.115 Y78.645 E36.79952
G1 X52.45 Y77.843 E36.8212
G1 X52.72 Y77.3 E36.83632
G1 X53.057 Y76.801 E36.85135
G1 X53.59 Y76.112 E36.87307
G1 X53.991 Y75.658 E36.88818
G1 X54.441 Y75.267 E36.90306
G1 X55.133 Y74.74 E36.92475
M204 S5000
G0 F3000 X55.375 Y75.059
M204 S500
G1 F1500 X55.859 Y74.74 E36.93921
G1 X56.323 Y74.516 E36.95207
G1 X57.128 Y74.185 E36.97378
G1 X57.677 Y74.002 E36.98821
G1 X58.176 Y73.905 E37.00089
G1 X59.033 Y73.792 E37.02246
G1 X59.582 Y73.756 E37.03618
G1 X160.429 Y73.757 E39.55182
G1 X160.995 Y73.795 E39.56597
G1 X161.863 Y73.913 E39.58782
G1 X162.43 Y74.031 E39.60227
G1 X162.918 Y74.201 E39.61516
G1 X163.721 Y74.537 E39.63687
G1 X164.239 Y74.796 E39.65132
G1 X164.669 Y75.088 E39.66429
G1 X165.357 Y75.62 E39.68598
G1 X165.79 Y76.006 E39.70045
G1 X166.129 Y76.398 E39.71338
G1 X166.657 Y77.091 E39.73511
G1 X166.975 Y77.575 E39.74956
G1 X167.201 Y78.041 E39.76248
G1 X167.531 Y78.845 E39.78416
G1 X167.714 Y79.395 E39.79862
G1 X167.81 Y79.889 E39.81117
G1 X167.923 Y80.743 E39.83266
G1 X167.959 Y81.294 E39.84643
G1 X167.957 Y138.714 E41.27878
G1 X167.919 Y139.275 E41.29281
G1 X167.802 Y140.143 E41.31465
G1 X167.686 Y140.71 E41.32909
G1 X167.515 Y141.201 E41.34206
G1 X167.18 Y142.003 E41.36374
G1 X166.921 Y142.521 E41.37819
G1 X166.627 Y142.954 E41.39124
G1 X166.094 Y143.643 E41.41297
G1 X165.709 Y144.076 E41.42743
G1 X165.317 Y144.414 E41.44034
G1 X164.625 Y144.941 E41.46204
G1 X164.141 Y145.26 E41.4765
G1 X163.677 Y145.484 E41.48935
G1 X162.872 Y145.815 E41.51106
G1 X162.323 Y145.998 E41.5255
G1 X161.824 Y146.095 E41.53818
G1 X160.967 Y146.208 E41.55974
G1 X160.418 Y146.244 E41.57347
G1 X59.571 Y146.242 E44.0891
G1 X59.01 Y146.204 E44.10313
G1 X58.142 Y146.087 E44.12498
G1 X57.575 Y145.971 E44.13942
G1 X57.082 Y145.799 E44.15244
G1 X56.279 Y145.463 E44.17415
G1 X55.761 Y145.204 E44.1886
G1 X55.331 Y144.912 E44.20157
G1 X54.643 Y144.38 E44.22326
G1 X54.21 Y143.994 E44.23773
G1 X53.871 Y143.602 E44.25066
G1 X53.343 Y142.909 E44.27239
G1 X53.025 Y142.425 E44.28684
G1 X52.799 Y141.959 E44.29976
G1 X52.469 Y141.155 E44.32144
G1 X52.286 Y140.605 E44.3359
G1 X52.19 Y140.111 E44.34845
G1 X52.077 Y139.257 E44.36994
G1 X52.041 Y138.706 E44.38371
G1 X52.043 Y81.286 E45.81606
G1 X52.081 Y80.725 E45.83009
G1 X52.198 Y79.857 E45.85193
G1 X52.314 Y79.29 E45.86637
G1 X52.485 Y78.799 E45.87934
G1 X52.82 Y77.997 E45.90102
G1 X53.079 Y77.479 E45.91547
G1 X53.373 Y77.046 E45.92852
G1 X53.906 Y76.357 E45.95025
G1 X54.291 Y75.924 E45.96471
G1 X54.683 Y75.586 E45.97762
G1 X55.375 Y75.059 E45.99932
M204 S5000
G0 F3000 X55.618 Y75.377
M204 S500
G1 F1500 X56.079 Y75.076 E46.01305
G1 X56.475 Y74.886 E46.02401
G1 X57.28 Y74.555 E46.04572
G1 X57.803 Y74.382 E46.05946
G1 X58.228 Y74.302 E46.07025
G1 X59.085 Y74.189 E46.09181
G1 X59.582 Y74.156 E46.10424
G1 X160.429 Y74.157 E48.61988
G1 X160.941 Y74.192 E48.63268
G1 X161.809 Y74.31 E48.65453
G1 X162.348 Y74.423 E48.66827
G1 X162.764 Y74.57 E48.67927
G1 X163.567 Y74.906 E48.70099
G1 X164.058 Y75.154 E48.71471
G1 X164.424 Y75.405 E48.72578
G1 X165.112 Y75.937 E48.74747
G1 X165.523 Y76.305 E48.76123
G1 X165.811 Y76.64 E48.77225
G1 X166.339 Y77.333 E48.79399
G1 X166.64 Y77.794 E48.80772
G1 X166.831 Y78.193 E48.81876
G1 X167.161 Y78.997 E48.84044
G1 X167.333 Y79.521 E48.85419
G1 X167.413 Y79.942 E48.86488
G1 X167.526 Y80.796 E48.88637
G1 X167.559 Y81.294 E48.89882
G1 X167.557 Y138.714 E50.33117
G1 X167.523 Y139.222 E50.34387
G1 X167.406 Y140.09 E50.36572
G1 X167.293 Y140.629 E50.37946
G1 X167.146 Y141.047 E50.39051
G1 X166.811 Y141.849 E50.41219
G1 X166.563 Y142.34 E50.42591
G1 X166.311 Y142.709 E50.43706
G1 X165.778 Y143.398 E50.45879
G1 X165.41 Y143.808 E50.47253
G1 X165.074 Y144.096 E50.48357
G1 X164.382 Y144.623 E50.50527
G1 X163.921 Y144.924 E50.519
G1 X163.525 Y145.114 E50.52996
G1 X162.72 Y145.445 E50.55167
G1 X162.197 Y145.618 E50.56541
G1 X161.772 Y145.698 E50.5762
G1 X160.915 Y145.811 E50.59776
G1 X160.418 Y145.844 E50.61019
G1 X59.571 Y145.842 E53.12583
G1 X59.063 Y145.808 E53.13853
G1 X58.195 Y145.691 E53.16037
G1 X57.656 Y145.578 E53.17411
G1 X57.236 Y145.43 E53.18522
G1 X56.433 Y145.094 E53.20693
G1 X55.942 Y144.846 E53.22066
G1 X55.576 Y144.595 E53.23173
G1 X54.888 Y144.063 E53.25342
G1 X54.477 Y143.695 E53.26718
G1 X54.189 Y143.36 E53.2782
G1 X53.661 Y142.667 E53.29994
G1 X53.36 Y142.206 E53.31367
G1 X53.169 Y141.807 E53.3247
G1 X52.839 Y141.003 E53.34638
G1 X52.667 Y140.479 E53.36014
G1 X52.587 Y140.058 E53.37083
G1 X52.474 Y139.204 E53.39232
G1 X52.441 Y138.706 E53.40477
G1 X52.443 Y81.286 E54.83712
G1 X52.477 Y80.778 E54.84982
G1 X52.594 Y79.91 E54.87167
G1 X52.707 Y79.371 E54.8854
G1 X52.854 Y78.953 E54.89646
G1 X53.189 Y78.151 E54.91814
G1 X53.437 Y77.66 E54.93186
G1 X53.689 Y77.291 E54.94301
G1 X54.222 Y76.602 E54.96474
G1 X54.59 Y76.192 E54.97848
G1 X54.926 Y75.904 E54.98952
G1 X55.618 Y75.377 E55.01122
M204 S5000
G0 F3000 X55.86 Y75.695
M204 S500
G1 F1500 X56.298 Y75.412 E55.02422
G1 X56.627 Y75.255 E55.03332
G1 X57.432 Y74.924 E55.05503
G1 X57.928 Y74.764 E55.06803
G1 X58.281 Y74.698 E55.07699
G1 X59.138 Y74.585 E55.09855
G1 X59.582 Y74.556 E55.10965
G1 X160.429 Y74.557 E57.62529
G1 X160.887 Y74.588 E57.63674
G1 X161.755 Y74.706 E57.65859
G1 X162.265 Y74.816 E57.67161
G1 X162.609 Y74.939 E57.68072
G1 X163.412 Y75.275 E57.70243
G1 X163.876 Y75.512 E57.71543
G1 X164.18 Y75.721 E57.72463
G1 X164.868 Y76.253 E57.74633
G1 X165.254 Y76.603 E57.75933
G1 X165.492 Y76.882 E57.76847
G1 X166.02 Y77.575 E57.79021
G1 X166.304 Y78.013 E57.80323
G1 X166.461 Y78.345 E57.81239
G1 X166.791 Y79.149 E57.83407
G1 X166.952 Y79.645 E57.84708
G1 X167.017 Y79.994 E57.85593
G1 X167.13 Y80.848 E57.87742
G1 X167.159 Y81.294 E57.88857
