;FLAVOR:RepRap
;TIME:13178
;Filament used: 8.62945m
;Layer height: 0.15
;Generated with Cura_SteamEngine 3.5.1
T0
M82 ;absolute extrusion mode
; Ender 3 Custom Start G-code
M104 S200 ; Set Extruder temperature
M140 S60 ; Set Heat Bed temperature
M190 S60 ; Wait for Heat Bed temperature
M109 S200 ; Wait for Extruder temperature
G28 ; Home all axes
G92 E0 ; Reset Extruder
G1 Z5.0 F3000 ; Move Z Axis up little to prevent scratching of Heat Bed
G1 X0.1 Y20 Z0.3 F5000.0 ; Move to start position
G1 X0.1 Y200.0 Z0.3 F1500.0 E15 ; Draw the first line
G1 X0.4 Y200.0 Z0.3 F5000.0 ; Move to side a little
G1 X0.4 Y20 Z0.3 F1500.0 E30 ; Draw the second line
G92 E0 ; Reset Extruder
G1 Z5.0 F3000 ; Move Z Axis up little to prevent scratching of Heat Bed
M83 ;relative extrusion mode
G1 F2400 E-5
;LAYER_COUNT:127
;LAYER:0
M107
M204 T5000
M566 X1800 Y1800
G0 F3600 X54.339 Y73.724 Z0.2
M204 P500
M566 X1200 Y1200
;TYPE:SKIRT
G1 F2400 E5
G1 F1500 X54.903 Y73.343 E0.02264
G1 X55.641 Y72.973 E0.02746
G1 X56.462 Y72.632 E0.02957
G1 X57.105 Y72.408 E0.02265
G1 X57.931 Y72.237 E0.02806
G1 X58.821 Y72.12 E0.02986
G1 X59.577 Y72.071 E0.0252
G1 X160.423 Y72.072 E3.35415
G1 X161.18 Y72.122 E0.02523
G1 X162.069 Y72.239 E0.02982
G1 X162.737 Y72.367 E0.02262
G1 X163.529 Y72.629 E0.02775
G1 X164.351 Y72.969 E0.02959
G1 X164.964 Y73.266 E0.02266
G1 X165.661 Y73.724 E0.02774
G1 X166.37 Y74.267 E0.0297
G1 X166.885 Y74.712 E0.02264
G1 X167.447 Y75.344 E0.02813
G1 X167.991 Y76.054 E0.02975
G1 X168.373 Y76.618 E0.02266
G1 X168.745 Y77.361 E0.02764
G1 X169.085 Y78.181 E0.02952
G1 X169.308 Y78.824 E0.02264
G1 X169.477 Y79.644 E0.02785
G1 X169.594 Y80.531 E0.02976
G1 X169.644 Y81.289 E0.02527
G1 X169.644 Y138.708 E1.90976
G1 X169.594 Y139.471 E0.02543
G1 X169.476 Y140.36 E0.02983
G1 X169.347 Y141.029 E0.02266
G1 X169.087 Y141.811 E0.02741
G1 X168.748 Y142.632 E0.02954
G1 X168.452 Y143.245 E0.02264
G1 X167.991 Y143.946 E0.02791
G1 X167.447 Y144.656 E0.02975
G1 X167.002 Y145.171 E0.02264
G1 X166.37 Y145.733 E0.02813
G1 X165.661 Y146.276 E0.0297
G1 X165.097 Y146.657 E0.02264
G1 X164.359 Y147.027 E0.02746
G1 X163.538 Y147.368 E0.02957
G1 X162.895 Y147.592 E0.02265
G1 X162.069 Y147.763 E0.02806
G1 X161.179 Y147.88 E0.02986
G1 X160.423 Y147.929 E0.0252
G1 X59.577 Y147.928 E3.35415
G1 X58.82 Y147.878 E0.02523
G1 X57.931 Y147.761 E0.02982
G1 X57.263 Y147.633 E0.02262
G1 X56.471 Y147.371 E0.02775
G1 X55.649 Y147.031 E0.02959
G1 X55.036 Y146.734 E0.02266
G1 X54.339 Y146.276 E0.02774
G1 X53.63 Y145.733 E0.0297
G1 X53.115 Y145.288 E0.02264
G1 X52.553 Y144.656 E0.02813
G1 X52.009 Y143.946 E0.02975
G1 X51.627 Y143.382 E0.02266
G1 X51.254 Y142.637 E0.02771
G1 X50.914 Y141.816 E0.02956
G1 X50.691 Y141.173 E0.02264
G1 X50.523 Y140.356 E0.02774
G1 X50.406 Y139.47 E0.02972
G1 X50.356 Y138.711 E0.0253
G1 X50.356 Y81.292 E1.90976
G1 X50.406 Y80.529 E0.02543
G1 X50.524 Y79.64 E0.02983
G1 X50.653 Y78.971 E0.02266
G1 X50.913 Y78.189 E0.02741
G1 X51.252 Y77.368 E0.02954
G1 X51.548 Y76.755 E0.02264
G1 X52.009 Y76.054 E0.02791
G1 X52.553 Y75.344 E0.02975
G1 X52.998 Y74.829 E0.02264
G1 X53.63 Y74.267 E0.02813
G1 X54.339 Y73.724 E0.0297
M566 X1800 Y1800
G0 F3600 X54.583 Y74.042
M566 X1200 Y1200
G1 F1500 X55.128 Y73.675 E0.02185
G1 X55.795 Y73.342 E0.0248
G1 X56.616 Y73.001 E0.02957
G1 X57.237 Y72.786 E0.02186
G1 X57.983 Y72.634 E0.02532
G1 X58.873 Y72.517 E0.02986
G1 X59.577 Y72.471 E0.02347
G1 X160.423 Y72.472 E3.35415
G1 X161.128 Y72.518 E0.0235
G1 X162.017 Y72.635 E0.02982
G1 X162.662 Y72.76 E0.02185
G1 X163.376 Y72.999 E0.02504
G1 X164.198 Y73.339 E0.02959
G1 X164.789 Y73.627 E0.02187
G1 X165.417 Y74.042 E0.02504
G1 X166.126 Y74.585 E0.0297
G1 X166.623 Y75.015 E0.02186
G1 X167.129 Y75.588 E0.02543
G1 X167.673 Y76.298 E0.02975
G1 X168.041 Y76.843 E0.02187
G1 X168.375 Y77.514 E0.02493
G1 X168.715 Y78.334 E0.02952
G1 X168.929 Y78.955 E0.02185
G1 X169.081 Y79.696 E0.02516
G1 X169.198 Y80.583 E0.02976
G1 X169.244 Y81.289 E0.02353
G1 X169.244 Y138.708 E1.90976
G1 X169.197 Y139.419 E0.0237
G1 X169.079 Y140.308 E0.02983
G1 X168.953 Y140.952 E0.02183
G1 X168.717 Y141.658 E0.02476
G1 X168.378 Y142.479 E0.02954
G1 X168.091 Y143.07 E0.02185
G1 X167.673 Y143.702 E0.0252
G1 X167.129 Y144.412 E0.02975
G1 X166.699 Y144.908 E0.02183
G1 X166.126 Y145.415 E0.02545
G1 X165.417 Y145.958 E0.0297
G1 X164.872 Y146.325 E0.02185
G1 X164.205 Y146.658 E0.0248
G1 X163.384 Y146.999 E0.02957
G1 X162.763 Y147.214 E0.02186
G1 X162.017 Y147.366 E0.02532
G1 X161.127 Y147.483 E0.02986
G1 X160.423 Y147.529 E0.02347
G1 X59.577 Y147.528 E3.35415
G1 X58.872 Y147.482 E0.0235
G1 X57.983 Y147.365 E0.02982
G1 X57.338 Y147.24 E0.02185
G1 X56.624 Y147.001 E0.02504
G1 X55.802 Y146.661 E0.02959
G1 X55.211 Y146.373 E0.02187
G1 X54.583 Y145.958 E0.02504
G1 X53.874 Y145.415 E0.0297
G1 X53.377 Y144.985 E0.02186
G1 X52.871 Y144.412 E0.02543
G1 X52.327 Y143.702 E0.02975
G1 X51.959 Y143.157 E0.02187
G1 X51.624 Y142.484 E0.025
G1 X51.284 Y141.663 E0.02956
G1 X51.07 Y141.042 E0.02185
G1 X50.919 Y140.304 E0.02505
G1 X50.802 Y139.418 E0.02972
G1 X50.756 Y138.711 E0.02356
G1 X50.756 Y81.292 E1.90976
G1 X50.803 Y80.581 E0.0237
G1 X50.921 Y79.692 E0.02983
G1 X51.047 Y79.048 E0.02183
G1 X51.283 Y78.342 E0.02476
G1 X51.622 Y77.521 E0.02954
G1 X51.909 Y76.93 E0.02185
G1 X52.327 Y76.298 E0.0252
G1 X52.871 Y75.588 E0.02975
G1 X53.301 Y75.092 E0.02183
G1 X53.874 Y74.585 E0.02545
G1 X54.583 Y74.042 E0.0297
M566 X1800 Y1800
G0 F3600 X54.826 Y74.359
M566 X1200 Y1200
G1 F1500 X55.351 Y74.008 E0.021
G1 X55.948 Y73.711 E0.02218
G1 X56.769 Y73.37 E0.02957
G1 X57.367 Y73.165 E0.02103
G1 X58.035 Y73.031 E0.02266
G1 X58.925 Y72.914 E0.02986
G1 X59.577 Y72.871 E0.02173
G1 X160.423 Y72.872 E3.35415
G1 X161.075 Y72.915 E0.02173
G1 X161.964 Y73.032 E0.02982
G1 X162.585 Y73.154 E0.02105
G1 X163.223 Y73.369 E0.02239
G1 X164.045 Y73.709 E0.02959
G1 X164.613 Y73.987 E0.02103
G1 X165.174 Y74.359 E0.02239
G1 X165.883 Y74.902 E0.0297
G1 X166.36 Y75.318 E0.02105
G1 X166.812 Y75.831 E0.02274
G1 X167.356 Y76.541 E0.02975
G1 X167.708 Y77.066 E0.02102
G1 X168.006 Y77.667 E0.02231
G1 X168.346 Y78.487 E0.02952
G1 X168.55 Y79.085 E0.02102
G1 X168.684 Y79.748 E0.0225
G1 X168.801 Y80.635 E0.02976
G1 X168.844 Y81.289 E0.0218
G1 X168.844 Y138.708 E1.90976
G1 X168.801 Y139.366 E0.02193
G1 X168.683 Y140.255 E0.02983
G1 X168.56 Y140.875 E0.02102
G1 X168.348 Y141.505 E0.02211
G1 X168.009 Y142.326 E0.02954
G1 X167.731 Y142.894 E0.02103
G1 X167.356 Y143.459 E0.02255
G1 X166.812 Y144.169 E0.02975
G1 X166.397 Y144.645 E0.021
G1 X165.883 Y145.098 E0.02279
G1 X165.174 Y145.641 E0.0297
G1 X164.649 Y145.992 E0.021
G1 X164.052 Y146.289 E0.02218
G1 X163.231 Y146.63 E0.02957
G1 X162.633 Y146.835 E0.02103
G1 X161.965 Y146.969 E0.02266
G1 X161.075 Y147.086 E0.02986
G1 X160.423 Y147.129 E0.02173
G1 X59.577 Y147.128 E3.35415
G1 X58.925 Y147.085 E0.02173
G1 X58.036 Y146.968 E0.02982
G1 X57.415 Y146.846 E0.02105
G1 X56.777 Y146.631 E0.02239
G1 X55.955 Y146.291 E0.02959
G1 X55.387 Y146.013 E0.02103
G1 X54.826 Y145.641 E0.02239
G1 X54.117 Y145.098 E0.0297
G1 X53.64 Y144.682 E0.02105
G1 X53.188 Y144.169 E0.02274
G1 X52.644 Y143.459 E0.02975
G1 X52.292 Y142.934 E0.02102
G1 X51.993 Y142.331 E0.02239
G1 X51.653 Y141.51 E0.02956
G1 X51.449 Y140.912 E0.02102
G1 X51.316 Y140.252 E0.02239
G1 X51.199 Y139.366 E0.02972
G1 X51.156 Y138.711 E0.02183
G1 X51.156 Y81.292 E1.90976
G1 X51.199 Y80.634 E0.02193
G1 X51.317 Y79.745 E0.02983
G1 X51.44 Y79.125 E0.02102
G1 X51.652 Y78.495 E0.02211
G1 X51.991 Y77.674 E0.02954
G1 X52.269 Y77.106 E0.02103
G1 X52.644 Y76.541 E0.02255
G1 X53.188 Y75.831 E0.02975
G1 X53.603 Y75.355 E0.021
G1 X54.117 Y74.902 E0.02279
G1 X54.826 Y74.359 E0.0297
M566 X1800 Y1800
G0 F3600 X55.069 Y74.677
M566 X1200 Y1200
G1 F1500 X55.574 Y74.341 E0.02017
G1 X56.102 Y74.081 E0.01958
G1 X56.923 Y73.74 E0.02957
G1 X57.497 Y73.545 E0.02016
G1 X58.087 Y73.427 E0.02001
G1 X58.977 Y73.31 E0.02986
G1 X59.577 Y73.271 E0.02
G1 X160.423 Y73.272 E3.35415
G1 X161.023 Y73.311 E0.02
G1 X161.912 Y73.428 E0.02982
G1 X162.507 Y73.547 E0.02018
G1 X163.07 Y73.738 E0.01977
G1 X163.892 Y74.078 E0.02959
G1 X164.436 Y74.346 E0.02017
G1 X164.931 Y74.677 E0.01981
G1 X165.64 Y75.22 E0.0297
G1 X166.096 Y75.62 E0.02017
G1 X166.494 Y76.074 E0.02008
G1 X167.038 Y76.784 E0.02975
G1 X167.375 Y77.289 E0.02019
G1 X167.636 Y77.82 E0.01968
G1 X167.976 Y78.64 E0.02952
G1 X168.171 Y79.214 E0.02016
G1 X168.287 Y79.8 E0.01987
G1 X168.404 Y80.687 E0.02976
G1 X168.444 Y81.289 E0.02007
G1 X168.444 Y138.708 E1.90976
G1 X168.404 Y139.313 E0.02017
G1 X168.286 Y140.202 E0.02983
G1 X168.167 Y140.797 E0.02018
G1 X167.978 Y141.353 E0.01953
G1 X167.639 Y142.174 E0.02954
G1 X167.371 Y142.718 E0.02017
G1 X167.038 Y143.216 E0.01993
G1 X166.494 Y143.926 E0.02975
G1 X166.095 Y144.382 E0.02015
G1 X165.64 Y144.78 E0.02011
G1 X164.931 Y145.323 E0.0297
G1 X164.426 Y145.659 E0.02017
G1 X163.898 Y145.919 E0.01958
G1 X163.077 Y146.26 E0.02957
G1 X162.503 Y146.455 E0.02016
G1 X161.913 Y146.573 E0.02001
G1 X161.023 Y146.69 E0.02986
G1 X160.423 Y146.729 E0.02
G1 X59.577 Y146.728 E3.35415
G1 X58.977 Y146.689 E0.02
G1 X58.088 Y146.572 E0.02982
G1 X57.493 Y146.453 E0.02018
G1 X56.93 Y146.262 E0.01977
G1 X56.108 Y145.922 E0.02959
G1 X55.564 Y145.654 E0.02017
G1 X55.069 Y145.323 E0.01981
G1 X54.36 Y144.78 E0.0297
G1 X53.904 Y144.38 E0.02017
G1 X53.506 Y143.926 E0.02008
G1 X52.962 Y143.216 E0.02975
G1 X52.625 Y142.711 E0.02019
G1 X52.363 Y142.178 E0.01975
G1 X52.023 Y141.357 E0.02956
G1 X51.828 Y140.783 E0.02016
G1 X51.713 Y140.199 E0.0198
G1 X51.596 Y139.313 E0.02972
G1 X51.556 Y138.711 E0.02007
G1 X51.556 Y81.292 E1.90976
G1 X51.596 Y80.687 E0.02017
G1 X51.714 Y79.798 E0.02983
G1 X51.833 Y79.203 E0.02018
G1 X52.022 Y78.647 E0.01953
G1 X52.361 Y77.826 E0.02954
G1 X52.629 Y77.282 E0.02017
G1 X52.962 Y76.784 E0.01993
G1 X53.506 Y76.074 E0.02975
G1 X53.905 Y75.618 E0.02015
G1 X54.36 Y75.22 E0.02011
G1 X55.069 Y74.677 E0.0297
M566 X1800 Y1800
G0 F3600 X55.312 Y74.995
M566 X1200 Y1200
G1 F1500 X55.795 Y74.675 E0.01927
G1 X56.255 Y74.45 E0.01703
G1 X57.076 Y74.109 E0.02957
G1 X57.625 Y73.924 E0.01927
G1 X58.14 Y73.824 E0.01745
G1 X59.03 Y73.707 E0.02986
G1 X59.577 Y73.671 E0.01823
G1 X160.423 Y73.672 E3.35415
G1 X160.971 Y73.708 E0.01827
G1 X161.86 Y73.825 E0.02982
G1 X162.428 Y73.94 E0.01928
G1 X162.917 Y74.108 E0.0172
G1 X163.739 Y74.448 E0.02959
G1 X164.258 Y74.706 E0.01928
G1 X164.688 Y74.995 E0.01723
G1 X165.397 Y75.538 E0.0297
G1 X165.831 Y75.921 E0.01925
G1 X166.177 Y76.318 E0.01752
G1 X166.721 Y77.028 E0.02975
G1 X167.041 Y77.511 E0.01927
G1 X167.267 Y77.973 E0.01711
G1 X167.607 Y78.793 E0.02952
G1 X167.791 Y79.342 E0.01926
G1 X167.891 Y79.853 E0.01732
G1 X168.008 Y80.74 E0.02976
G1 X168.044 Y81.289 E0.0183
G1 X168.044 Y138.708 E1.90976
G1 X168.007 Y139.261 E0.01843
G1 X167.889 Y140.15 E0.02983
G1 X167.774 Y140.717 E0.01924
G1 X167.608 Y141.2 E0.01699
G1 X167.269 Y142.021 E0.02954
G1 X167.012 Y142.54 E0.01926
G1 X166.721 Y142.972 E0.01732
G1 X166.177 Y143.682 E0.02975
G1 X165.794 Y144.117 E0.01928
G1 X165.397 Y144.462 E0.01749
G1 X164.688 Y145.005 E0.0297
G1 X164.205 Y145.325 E0.01927
G1 X163.745 Y145.55 E0.01703
G1 X162.924 Y145.891 E0.02957
G1 X162.375 Y146.076 E0.01927
G1 X161.86 Y146.176 E0.01745
G1 X160.97 Y146.293 E0.02986
G1 X160.423 Y146.329 E0.01823
G1 X59.577 Y146.328 E3.35415
G1 X59.029 Y146.292 E0.01827
G1 X58.14 Y146.175 E0.02982
G1 X57.572 Y146.06 E0.01928
G1 X57.083 Y145.892 E0.0172
G1 X56.261 Y145.552 E0.02959
G1 X55.742 Y145.294 E0.01928
G1 X55.312 Y145.005 E0.01723
G1 X54.603 Y144.462 E0.0297
G1 X54.169 Y144.079 E0.01925
G1 X53.823 Y143.682 E0.01752
G1 X53.279 Y142.972 E0.02975
G1 X52.959 Y142.489 E0.01927
G1 X52.733 Y142.025 E0.01717
G1 X52.393 Y141.204 E0.02956
G1 X52.208 Y140.655 E0.01927
G1 X52.109 Y140.147 E0.01721
G1 X51.992 Y139.261 E0.02972
G1 X51.956 Y138.711 E0.01833
G1 X51.956 Y81.292 E1.90976
G1 X51.993 Y80.739 E0.01843
G1 X52.111 Y79.85 E0.02983
G1 X52.226 Y79.283 E0.01924
G1 X52.392 Y78.8 E0.01699
G1 X52.731 Y77.979 E0.02954
G1 X52.988 Y77.46 E0.01926
G1 X53.279 Y77.028 E0.01732
G1 X53.823 Y76.318 E0.02975
G1 X54.206 Y75.883 E0.01928
G1 X54.603 Y75.538 E0.01749
G1 X55.312 Y74.995 E0.0297
M566 X1800 Y1800
G0 F3600 X55.555 Y75.312
M566 X1200 Y1200
G1 F1500 X56.016 Y75.01 E0.01833
G1 X56.408 Y74.82 E0.01449
G1 X57.229 Y74.479 E0.02957
G1 X57.752 Y74.305 E0.01833
G1 X58.192 Y74.22 E0.01491
G1 X59.082 Y74.103 E0.02986
G1 X59.577 Y74.071 E0.0165
G1 X160.423 Y74.072 E3.35415
G1 X160.919 Y74.104 E0.01653
G1 X161.808 Y74.221 E0.02982
G1 X162.347 Y74.333 E0.01831
G1 X162.764 Y74.478 E0.01468
G1 X163.586 Y74.818 E0.02959
G1 X164.079 Y75.064 E0.01833
G1 X164.445 Y75.312 E0.0147
G1 X165.154 Y75.855 E0.0297
G1 X165.566 Y76.221 E0.01833
G1 X165.859 Y76.561 E0.01493
G1 X166.403 Y77.271 E0.02975
G1 X166.706 Y77.731 E0.01832
G1 X166.897 Y78.127 E0.01462
G1 X167.237 Y78.947 E0.02952
G1 X167.411 Y79.469 E0.0183
G1 X167.494 Y79.905 E0.01476
G1 X167.611 Y80.792 E0.02976
G1 X167.644 Y81.289 E0.01657
G1 X167.644 Y138.708 E1.90976
G1 X167.611 Y139.208 E0.01667
G1 X167.493 Y140.097 E0.02983
G1 X167.381 Y140.637 E0.01834
G1 X167.238 Y141.047 E0.01444
G1 X166.899 Y141.868 E0.02954
G1 X166.653 Y142.361 E0.01833
G1 X166.403 Y142.729 E0.0148
G1 X165.859 Y143.439 E0.02975
G1 X165.493 Y143.851 E0.01833
G1 X165.154 Y144.145 E0.01492
G1 X164.445 Y144.688 E0.0297
G1 X163.984 Y144.99 E0.01833
G1 X163.592 Y145.18 E0.01449
G1 X162.771 Y145.521 E0.02957
G1 X162.248 Y145.695 E0.01833
G1 X161.808 Y145.78 E0.01491
G1 X160.918 Y145.897 E0.02986
G1 X160.423 Y145.929 E0.0165
G1 X59.577 Y145.928 E3.35415
G1 X59.081 Y145.896 E0.01653
G1 X58.192 Y145.779 E0.02982
G1 X57.653 Y145.667 E0.01831
G1 X57.236 Y145.522 E0.01468
G1 X56.414 Y145.182 E0.02959
G1 X55.921 Y144.936 E0.01833
G1 X55.555 Y144.688 E0.0147
G1 X54.846 Y144.145 E0.0297
G1 X54.434 Y143.779 E0.01833
G1 X54.141 Y143.439 E0.01493
G1 X53.597 Y142.729 E0.02975
G1 X53.294 Y142.269 E0.01832
G1 X53.102 Y141.872 E0.01467
G1 X52.762 Y141.051 E0.02956
G1 X52.589 Y140.528 E0.01832
G1 X52.506 Y140.094 E0.0147
G1 X52.389 Y139.208 E0.02972
G1 X52.356 Y138.711 E0.01657
G1 X52.356 Y81.292 E1.90976
G1 X52.389 Y80.792 E0.01667
G1 X52.507 Y79.903 E0.02983
G1 X52.619 Y79.363 E0.01834
G1 X52.762 Y78.953 E0.01444
G1 X53.101 Y78.132 E0.02954
G1 X53.347 Y77.639 E0.01833
G1 X53.597 Y77.271 E0.0148
G1 X54.141 Y76.561 E0.02975
G1 X54.507 Y76.149 E0.01833
G1 X54.846 Y75.855 E0.01492
G1 X55.555 Y75.312 E0.0297
M566 X1800 Y1800
G0 F3600 X55.799 Y75.63
M566 X1200 Y1200
G1 F1500 X56.236 Y75.345 E0.01735
G1 X56.562 Y75.189 E0.01202
G1 X57.383 Y74.848 E0.02957
G1 X57.878 Y74.686 E0.01732
G1 X58.244 Y74.617 E0.01239
G1 X59.134 Y74.5 E0.02986
G1 X59.577 Y74.471 E0.01477
G1 X160.423 Y74.472 E3.35415
G1 X160.867 Y74.501 E0.0148
G1 X161.756 Y74.618 E0.02982
G1 X162.266 Y74.725 E0.01733
G1 X162.612 Y74.847 E0.0122
G1 X163.434 Y75.187 E0.02959
G1 X163.898 Y75.423 E0.01731
G1 X164.201 Y75.63 E0.01221
G1 X164.91 Y76.173 E0.0297
G1 X165.299 Y76.52 E0.01734
G1 X165.542 Y76.804 E0.01243
G1 X166.086 Y77.514 E0.02975
G1 X166.37 Y77.951 E0.01733
G1 X166.528 Y78.28 E0.01214
G1 X166.868 Y79.1 E0.02952
G1 X167.03 Y79.595 E0.01732
G1 X167.098 Y79.957 E0.01225
G1 X167.215 Y80.844 E0.02976
G1 X167.244 Y81.289 E0.01483
G1 X167.244 Y138.708 E1.90976
G1 X167.214 Y139.155 E0.0149
G1 X167.096 Y140.044 E0.02983
G1 X166.988 Y140.554 E0.01734
G1 X166.869 Y140.895 E0.01201
G1 X166.53 Y141.716 E0.02954
G1 X166.294 Y142.181 E0.01734
G1 X166.086 Y142.486 E0.01228
G1 X165.542 Y143.196 E0.02975
G1 X165.194 Y143.584 E0.01734
G1 X164.91 Y143.827 E0.01243
G1 X164.201 Y144.37 E0.0297
G1 X163.764 Y144.655 E0.01735
G1 X163.438 Y144.811 E0.01202
G1 X162.617 Y145.152 E0.02957
G1 X162.122 Y145.314 E0.01732
G1 X161.756 Y145.383 E0.01239
G1 X160.866 Y145.5 E0.02986
G1 X160.423 Y145.529 E0.01477
G1 X59.577 Y145.528 E3.35415
G1 X59.133 Y145.499 E0.0148
G1 X58.244 Y145.382 E0.02982
G1 X57.734 Y145.275 E0.01733
G1 X57.388 Y145.153 E0.0122
G1 X56.566 Y144.813 E0.02959
G1 X56.102 Y144.577 E0.01731
G1 X55.799 Y144.37 E0.01221
G1 X55.09 Y143.827 E0.0297
G1 X54.701 Y143.48 E0.01734
