;FLAVOR:Marlin
;TIME:11102
;Filament used: 8.61191m
;Layer height: 0.15
;Generated with Cura_SteamEngine 3.5.1
M82 ;absolute extrusion mode
; Ender 3 Custom Start G-code
M104 S200 ; Set Extruder temperature
M140 S60 ; Set Heat Bed temperature
M190 S60 ; Wait for Heat Bed temperature
M109 S200 ; Wait for Extruder temperature
G28 ; Home all axes
G92 E0 ; Reset Extruder
G1 Z5.0 F3000 ; Move Z Axis up little to prevent scratching of Heat Bed
G1 X0.1 Y20 Z0.3 F5000.0 ; Move to start position
G1 X0.1 Y200.0 Z0.3 F1500.0 E15 ; Draw the first line
G1 X0.4 Y200.0 Z0.3 F5000.0 ; Move to side a little
G1 X0.4 Y20 Z0.3 F1500.0 E30 ; Draw the second line
G92 E0 ; Reset Extruder
G1 Z5.0 F3000 ; Move Z Axis up little to prevent scratching of Heat Bed
G92 E0
G1 F2400 E-5
;LAYER_COUNT:127
;LAYER:0
M107
M204 S5000
M205 X30 Y30
G0 F3000 X54.363 Y73.763 Z0.2
M204 S500
M205 X20 Y20
;TYPE:SKIRT
G1 F2400 E0
G1 F1800 X54.927 Y73.381 E0.02266
G1 X55.667 Y73.011 E0.05017
G1 X56.477 Y72.675 E0.07934
G1 X57.12 Y72.451 E0.10199
G1 X57.653 Y72.327 E0.12019
G1 X58.531 Y72.166 E0.14988
G1 X59.207 Y72.083 E0.17253
G1 X59.579 Y72.071 E0.18491
G1 X160.712 Y72.109 E3.54861
G1 X161.392 Y72.149 E3.57126
G1 X161.903 Y72.233 E3.58849
G1 X162.493 Y72.357 E3.60854
G1 X163.15 Y72.536 E3.63119
G1 X163.514 Y72.672 E3.64411
G1 X164.325 Y73.007 E3.6733
G1 X164.938 Y73.304 E3.69595
G1 X165.637 Y73.763 E3.72377
G1 X166.337 Y74.299 E3.75309
G1 X166.853 Y74.744 E3.77575
G1 X167.415 Y75.377 E3.80391
G1 X167.952 Y76.078 E3.83328
G1 X168.334 Y76.642 E3.85593
G1 X168.707 Y77.386 E3.88361
G1 X169.042 Y78.195 E3.91274
G1 X169.265 Y78.838 E3.93537
G1 X169.387 Y79.364 E3.95333
G1 X169.548 Y80.239 E3.98292
G1 X169.632 Y80.915 E4.00558
G1 X169.644 Y81.293 E4.01816
G1 X169.606 Y138.999 E5.93747
G1 X169.566 Y139.679 E5.96012
G1 X169.482 Y140.188 E5.97728
G1 X169.358 Y140.778 E5.99734
G1 X169.179 Y141.435 E6.01998
G1 X169.044 Y141.796 E6.0328
G1 X168.71 Y142.606 E6.06194
G1 X168.414 Y143.219 E6.08458
G1 X167.952 Y143.922 E6.11256
G1 X167.415 Y144.623 E6.14193
G1 X166.97 Y145.138 E6.16457
G1 X166.337 Y145.701 E6.19275
G1 X165.637 Y146.237 E6.22207
G1 X165.073 Y146.619 E6.24473
G1 X164.333 Y146.989 E6.27225
G1 X163.523 Y147.325 E6.30141
G1 X162.88 Y147.549 E6.32406
G1 X162.347 Y147.673 E6.34226
G1 X161.469 Y147.834 E6.37195
G1 X160.793 Y147.917 E6.3946
G1 X160.421 Y147.929 E6.40698
G1 X59.288 Y147.891 E9.77068
G1 X58.608 Y147.851 E9.79333
G1 X58.097 Y147.767 E9.81056
G1 X57.507 Y147.643 E9.83061
G1 X56.85 Y147.464 E9.85326
G1 X56.486 Y147.328 E9.86618
G1 X55.675 Y146.993 E9.89537
G1 X55.062 Y146.696 E9.91802
G1 X54.363 Y146.237 E9.94584
G1 X53.663 Y145.701 E9.97516
G1 X53.147 Y145.256 E9.99782
G1 X52.585 Y144.623 E10.02598
G1 X52.048 Y143.922 E10.05535
G1 X51.666 Y143.358 E10.078
G1 X51.293 Y142.614 E10.10569
G1 X50.958 Y141.805 E10.13481
G1 X50.735 Y141.162 E10.15744
G1 X50.613 Y140.636 E10.1754
G1 X50.452 Y139.761 E10.20499
G1 X50.368 Y139.085 E10.22765
G1 X50.356 Y138.707 E10.24023
G1 X50.394 Y81.001 E12.15954
G1 X50.434 Y80.321 E12.1822
G1 X50.518 Y79.812 E12.19935
G1 X50.642 Y79.222 E12.21941
G1 X50.821 Y78.565 E12.24205
G1 X50.956 Y78.204 E12.25487
G1 X51.29 Y77.394 E12.28402
G1 X51.586 Y76.781 E12.30666
G1 X52.048 Y76.078 E12.33464
G1 X52.585 Y75.377 E12.36401
G1 X53.03 Y74.862 E12.38664
G1 X53.663 Y74.299 E12.41482
G1 X54.363 Y73.763 E12.44414
M204 S5000
M205 X30 Y30
G0 F3000 X54.606 Y74.081
M204 S500
M205 X20 Y20
G1 F1800 X55.151 Y73.714 E12.466
G1 X55.82 Y73.38 E12.49087
G1 X56.63 Y73.044 E12.52003
G1 X57.251 Y72.83 E12.54188
G1 X57.725 Y72.721 E12.55806
G1 X58.603 Y72.56 E12.58775
G1 X59.579 Y72.471 E12.62034
G1 X160.712 Y72.509 E15.98404
G1 X161.368 Y72.549 E16.0059
G1 X161.821 Y72.624 E16.02117
G1 X162.411 Y72.748 E16.04122
G1 X163.044 Y72.922 E16.06306
G1 X163.362 Y73.042 E16.07436
G1 X164.173 Y73.377 E16.10355
G1 X164.763 Y73.664 E16.12537
G1 X165.394 Y74.081 E16.15052
G1 X166.094 Y74.617 E16.17985
G1 X166.59 Y75.047 E16.20168
G1 X167.098 Y75.62 E16.22715
G1 X167.635 Y76.321 E16.25652
G1 X168.002 Y76.866 E16.27838
G1 X168.337 Y77.539 E16.30338
G1 X168.672 Y78.348 E16.3325
G1 X168.886 Y78.969 E16.35435
G1 X168.994 Y79.437 E16.37032
G1 X169.155 Y80.312 E16.39991
G1 X169.234 Y80.964 E16.42176
G1 X169.244 Y81.293 E16.43271
G1 X169.206 Y138.999 E18.35202
G1 X169.166 Y139.654 E18.37384
G1 X169.091 Y140.106 E18.38908
G1 X168.967 Y140.696 E18.40913
G1 X168.793 Y141.329 E18.43097
G1 X168.674 Y141.644 E18.44217
G1 X168.34 Y142.454 E18.47131
G1 X168.053 Y143.045 E18.49316
G1 X167.635 Y143.679 E18.51842
G1 X167.098 Y144.38 E18.54779
G1 X166.667 Y144.876 E18.56964
G1 X166.094 Y145.383 E18.59509
G1 X165.394 Y145.919 E18.62441
G1 X164.849 Y146.286 E18.64627
G1 X164.18 Y146.62 E18.67114
G1 X163.37 Y146.956 E18.7003
G1 X162.749 Y147.17 E18.72215
G1 X162.275 Y147.279 E18.73833
G1 X161.397 Y147.44 E18.76802
G1 X160.421 Y147.529 E18.80061
G1 X59.288 Y147.491 E22.16431
G1 X58.632 Y147.451 E22.18617
G1 X58.179 Y147.376 E22.20144
G1 X57.589 Y147.252 E22.22149
G1 X56.956 Y147.078 E22.24333
G1 X56.638 Y146.958 E22.25463
G1 X55.827 Y146.623 E22.28382
G1 X55.237 Y146.336 E22.30564
G1 X54.606 Y145.919 E22.3308
G1 X53.906 Y145.383 E22.36012
G1 X53.41 Y144.953 E22.38195
G1 X52.902 Y144.38 E22.40742
G1 X52.365 Y143.679 E22.43679
G1 X51.998 Y143.134 E22.45865
G1 X51.663 Y142.461 E22.48365
G1 X51.328 Y141.652 E22.51277
G1 X51.114 Y141.031 E22.53462
G1 X51.006 Y140.563 E22.5506
G1 X50.845 Y139.688 E22.58019
G1 X50.766 Y139.036 E22.60203
G1 X50.756 Y138.707 E22.61298
G1 X50.794 Y81.001 E24.53229
G1 X50.834 Y80.346 E24.55411
G1 X50.909 Y79.894 E24.56935
G1 X51.033 Y79.304 E24.58941
G1 X51.207 Y78.671 E24.61124
G1 X51.326 Y78.356 E24.62244
G1 X51.66 Y77.546 E24.65158
G1 X51.947 Y76.955 E24.67343
G1 X52.365 Y76.321 E24.69869
G1 X52.902 Y75.62 E24.72806
G1 X53.333 Y75.124 E24.74992
G1 X53.906 Y74.617 E24.77536
G1 X54.606 Y74.081 E24.80469
M204 S5000
M205 X30 Y30
G0 F3000 X54.849 Y74.398
M204 S500
M205 X20 Y20
G1 F1800 X55.374 Y74.046 E24.82571
G1 X55.973 Y73.75 E24.84793
G1 X56.783 Y73.414 E24.8771
G1 X57.381 Y73.209 E24.89812
G1 X57.797 Y73.114 E24.91232
G1 X58.675 Y72.953 E24.94201
G1 X59.579 Y72.871 E24.9722
G1 X160.712 Y72.909 E28.33589
G1 X161.343 Y72.949 E28.35692
G1 X161.738 Y73.016 E28.37025
G1 X162.328 Y73.14 E28.3903
G1 X163.209 Y73.412 E28.42097
G1 X164.02 Y73.747 E28.45015
G1 X164.588 Y74.025 E28.47119
G1 X165.151 Y74.398 E28.49365
G1 X165.851 Y74.934 E28.52297
G1 X166.327 Y75.349 E28.54398
G1 X166.78 Y75.863 E28.56676
G1 X167.317 Y76.564 E28.59613
G1 X167.669 Y77.09 E28.61718
G1 X167.968 Y77.692 E28.63954
G1 X168.303 Y78.501 E28.66866
G1 X168.507 Y79.099 E28.68968
G1 X168.6 Y79.509 E28.70366
G1 X168.761 Y80.384 E28.73325
G1 X168.844 Y81.292 E28.76358
G1 X168.806 Y138.998 E30.68289
G1 X168.766 Y139.629 E30.70392
G1 X168.699 Y140.023 E30.71721
G1 X168.575 Y140.613 E30.73726
G1 X168.304 Y141.491 E30.76783
G1 X167.97 Y142.301 E30.79697
G1 X167.693 Y142.869 E30.81798
G1 X167.317 Y143.436 E30.84061
G1 X166.78 Y144.137 E30.86998
G1 X166.365 Y144.613 E30.89099
G1 X165.851 Y145.066 E30.91377
G1 X165.151 Y145.602 E30.9431
G1 X164.626 Y145.954 E30.96412
G1 X164.027 Y146.25 E30.98634
G1 X163.217 Y146.586 E31.01551
G1 X162.619 Y146.791 E31.03654
G1 X162.203 Y146.886 E31.05073
G1 X161.325 Y147.047 E31.08042
G1 X160.421 Y147.129 E31.11061
G1 X59.288 Y147.091 E34.47431
G1 X58.657 Y147.051 E34.49534
G1 X58.262 Y146.984 E34.50866
G1 X57.672 Y146.86 E34.52871
G1 X56.791 Y146.588 E34.55938
G1 X55.98 Y146.253 E34.58856
G1 X55.412 Y145.975 E34.6096
G1 X54.849 Y145.602 E34.63206
G1 X54.149 Y145.066 E34.66138
G1 X53.673 Y144.651 E34.68239
G1 X53.22 Y144.137 E34.70518
G1 X52.683 Y143.436 E34.73455
G1 X52.331 Y142.91 E34.7556
G1 X52.032 Y142.308 E34.77795
G1 X51.697 Y141.499 E34.80708
G1 X51.493 Y140.901 E34.82809
G1 X51.4 Y140.491 E34.84207
G1 X51.239 Y139.616 E34.87167
G1 X51.156 Y138.708 E34.90199
G1 X51.194 Y81.002 E36.8213
G1 X51.234 Y80.371 E36.84233
G1 X51.301 Y79.977 E36.85562
G1 X51.425 Y79.387 E36.87568
G1 X51.696 Y78.509 E36.90624
G1 X52.03 Y77.699 E36.93538
G1 X52.307 Y77.131 E36.9564
G1 X52.683 Y76.564 E36.97902
G1 X53.22 Y75.863 E37.0084
G1 X53.635 Y75.387 E37.0294
G1 X54.149 Y74.934 E37.05219
G1 X54.849 Y74.398 E37.08151
M204 S5000
M205 X30 Y30
G0 F3000 X55.092 Y74.716
M204 S500
M205 X20 Y20
G1 F1800 X55.597 Y74.38 E37.10168
G1 X56.126 Y74.119 E37.1213
G1 X56.936 Y73.783 E37.15047
G1 X57.511 Y73.588 E37.17067
G1 X57.869 Y73.507 E37.18287
G1 X58.747 Y73.346 E37.21256
G1 X59.579 Y73.271 E37.24035
G1 X160.712 Y73.309 E40.60404
G1 X161.317 Y73.349 E40.62421
G1 X161.656 Y73.407 E40.63565
G1 X162.246 Y73.531 E40.6557
G1 X163.056 Y73.781 E40.6839
G1 X163.867 Y74.116 E40.71308
G1 X164.411 Y74.384 E40.73325
G1 X164.908 Y74.716 E40.75313
G1 X165.608 Y75.252 E40.78245
G1 X166.064 Y75.651 E40.80261
G1 X166.463 Y76.107 E40.82276
G1 X167 Y76.808 E40.85213
G1 X167.336 Y77.312 E40.87228
G1 X167.598 Y77.845 E40.89203
G1 X167.933 Y78.654 E40.92115
G1 X168.128 Y79.228 E40.94132
G1 X168.207 Y79.582 E40.95338
G1 X168.368 Y80.457 E40.98297
G1 X168.444 Y81.292 E41.01086
G1 X168.406 Y138.998 E42.93017
G1 X168.366 Y139.603 E42.95034
G1 X168.308 Y139.941 E42.96174
G1 X168.184 Y140.531 E42.98179
G1 X167.935 Y141.339 E43.00991
G1 X167.601 Y142.149 E43.03906
G1 X167.333 Y142.693 E43.05923
G1 X167 Y143.192 E43.07918
G1 X166.463 Y143.893 E43.10855
G1 X166.063 Y144.349 E43.12872
G1 X165.608 Y144.748 E43.14885
G1 X164.908 Y145.284 E43.17818
G1 X164.403 Y145.62 E43.19835
G1 X163.874 Y145.881 E43.21797
G1 X163.064 Y146.217 E43.24714
G1 X162.489 Y146.412 E43.26733
G1 X162.131 Y146.493 E43.27954
G1 X161.253 Y146.654 E43.30923
G1 X160.421 Y146.729 E43.33701
G1 X59.288 Y146.691 E46.70071
G1 X58.683 Y146.651 E46.72088
G1 X58.344 Y146.593 E46.73232
G1 X57.754 Y146.469 E46.75237
G1 X56.944 Y146.219 E46.78056
G1 X56.133 Y145.884 E46.80975
G1 X55.589 Y145.616 E46.82992
G1 X55.092 Y145.284 E46.8498
G1 X54.392 Y144.748 E46.87912
G1 X53.936 Y144.349 E46.89927
G1 X53.537 Y143.893 E46.91943
G1 X53 Y143.192 E46.9488
G1 X52.664 Y142.688 E46.96894
G1 X52.402 Y142.155 E46.9887
G1 X52.067 Y141.346 E47.01782
G1 X51.872 Y140.772 E47.03798
G1 X51.793 Y140.418 E47.05005
G1 X51.632 Y139.543 E47.07964
G1 X51.556 Y138.708 E47.10752
G1 X51.594 Y81.002 E49.02683
G1 X51.634 Y80.397 E49.047
G1 X51.692 Y80.059 E49.05841
G1 X51.816 Y79.469 E49.07846
G1 X52.065 Y78.661 E49.10658
G1 X52.399 Y77.851 E49.13572
G1 X52.667 Y77.307 E49.15589
G1 X53 Y76.808 E49.17584
G1 X53.537 Y76.107 E49.20521
G1 X53.937 Y75.651 E49.22539
G1 X54.392 Y75.252 E49.24552
G1 X55.092 Y74.716 E49.27484
M204 S5000
M205 X30 Y30
G0 F3000 X55.336 Y75.033
M204 S500
M205 X20 Y20
G1 F1800 X55.819 Y74.714 E49.29409
G1 X56.28 Y74.489 E49.31115
G1 X57.09 Y74.153 E49.34032
G1 X57.639 Y73.968 E49.35959
G1 X57.941 Y73.901 E49.36988
G1 X58.819 Y73.74 E49.39957
G1 X59.579 Y73.671 E49.42495
G1 X160.712 Y73.709 E52.78865
G1 X161.574 Y73.799 E52.81747
G1 X162.164 Y73.923 E52.83753
G1 X162.903 Y74.151 E52.86325
G1 X163.714 Y74.486 E52.89243
G1 X164.233 Y74.744 E52.91171
G1 X164.664 Y75.033 E52.92897
G1 X165.364 Y75.569 E52.95829
G1 X165.799 Y75.952 E52.97757
G1 X166.145 Y76.35 E52.99511
G1 X166.682 Y77.051 E53.02448
G1 X167.002 Y77.534 E53.04375
G1 X167.228 Y77.998 E53.06092
G1 X167.563 Y78.807 E53.09004
G1 X167.748 Y79.356 E53.10931
G1 X167.814 Y79.654 E53.11946
G1 X167.975 Y80.529 E53.14905
G1 X168.044 Y81.292 E53.17453
G1 X168.006 Y138.998 E55.09384
G1 X167.916 Y139.859 E55.12264
G1 X167.792 Y140.449 E55.14269
G1 X167.565 Y141.186 E55.16834
G1 X167.231 Y141.996 E55.19748
G1 X166.974 Y142.515 E55.21674
G1 X166.682 Y142.949 E55.23414
G1 X166.145 Y143.65 E55.26351
G1 X165.762 Y144.085 E55.28279
G1 X165.364 Y144.431 E55.30033
G1 X164.664 Y144.967 E55.32965
G1 X164.181 Y145.286 E55.3489
G1 X163.72 Y145.511 E55.36596
G1 X162.91 Y145.847 E55.39513
G1 X162.361 Y146.032 E55.4144
G1 X162.059 Y146.099 E55.42469
G1 X161.181 Y146.26 E55.45438
G1 X160.421 Y146.329 E55.47976
G1 X59.288 Y146.291 E58.84346
G1 X58.426 Y146.201 E58.87228
G1 X57.836 Y146.077 E58.89233
G1 X57.097 Y145.849 E58.91806
G1 X56.286 Y145.514 E58.94724
G1 X55.767 Y145.256 E58.96652
G1 X55.336 Y144.967 E58.98378
G1 X54.636 Y144.431 E59.0131
G1 X54.201 Y144.048 E59.03238
G1 X53.855 Y143.65 E59.04992
G1 X53.318 Y142.949 E59.07929
G1 X52.998 Y142.466 E59.09856
G1 X52.772 Y142.002 E59.11573
G1 X52.437 Y141.193 E59.14485
G1 X52.252 Y140.644 E59.16412
G1 X52.186 Y140.346 E59.17427
G1 X52.025 Y139.471 E59.20386
G1 X51.956 Y138.708 E59.22934
G1 X51.994 Y81.002 E61.14865
G1 X52.084 Y80.141 E61.17744
G1 X52.208 Y79.551 E61.1975
G1 X52.435 Y78.814 E61.22315
G1 X52.769 Y78.004 E61.25229
G1 X53.026 Y77.485 E61.27155
G1 X53.318 Y77.051 E61.28895
G1 X53.855 Y76.35 E61.31832
G1 X54.238 Y75.915 E61.33759
G1 X54.636 Y75.569 E61.35513
G1 X55.336 Y75.033 E61.38446
M204 S5000
M205 X30 Y30
G0 F3000 X55.579 Y75.351
M204 S500
M205 X20 Y20
G1 F1800 X56.039 Y75.049 E61.40276
G1 X56.433 Y74.858 E61.41732
G1 X57.243 Y74.522 E61.44649
G1 X58.014 Y74.294 E61.47323
G1 X58.892 Y74.133 E61.50292
G1 X59.578 Y74.071 E61.52583
G1 X160.711 Y74.109 E64.88953
G1 X161.492 Y74.19 E64.91564
G1 X162.082 Y74.314 E64.9357
G1 X162.751 Y74.521 E64.95899
G1 X163.562 Y74.856 E64.98817
G1 X164.054 Y75.103 E65.00648
G1 X164.421 Y75.351 E65.02121
G1 X165.121 Y75.887 E65.05054
G1 X165.533 Y76.253 E65.06887
G1 X165.828 Y76.593 E65.08384
G1 X166.365 Y77.294 E65.11321
G1 X166.667 Y77.755 E65.13154
G1 X166.859 Y78.151 E65.14618
G1 X167.194 Y78.96 E65.1753
G1 X167.42 Y79.726 E65.20186
G1 X167.581 Y80.601 E65.23145
G1 X167.644 Y81.292 E65.25453
G1 X167.606 Y138.998 E67.17384
G1 X167.525 Y139.777 E67.19989
G1 X167.401 Y140.367 E67.21994
G1 X167.195 Y141.034 E67.24316
G1 X166.861 Y141.844 E67.2723
G1 X166.615 Y142.336 E67.2906
G1 X166.365 Y142.706 E67.30545
G1 X165.828 Y143.407 E67.33482
G1 X165.462 Y143.819 E67.35315
G1 X165.121 Y144.113 E67.36813
G1 X164.421 Y144.649 E67.39745
G1 X163.961 Y144.951 E67.41575
G1 X163.567 Y145.142 E67.43031
G1 X162.757 Y145.478 E67.45948
G1 X161.986 Y145.706 E67.48622
G1 X161.108 Y145.867 E67.51591
G1 X160.422 Y145.929 E67.53882
G1 X59.289 Y145.891 E70.90252
G1 X58.508 Y145.81 E70.92863
G1 X57.918 Y145.686 E70.94869
G1 X57.249 Y145.479 E70.97198
G1 X56.438 Y145.144 E71.00116
G1 X55.946 Y144.897 E71.01947
G1 X55.579 Y144.649 E71.03421
G1 X54.879 Y144.113 E71.06353
G1 X54.467 Y143.747 E71.08186
G1 X54.172 Y143.407 E71.09683
G1 X53.635 Y142.706 E71.1262
G1 X53.333 Y142.245 E71.14453
G1 X53.141 Y141.849 E71.15917
G1 X52.806 Y141.04 E71.18829
G1 X52.58 Y140.274 E71.21485
G1 X52.419 Y139.399 E71.24445
G1 X52.356 Y138.708 E71.26752
G1 X52.394 Y81.002 E73.18683
G1 X52.475 Y80.223 E73.21288
G1 X52.599 Y79.633 E73.23293
G1 X52.805 Y78.966 E73.25615
G1 X53.139 Y78.156 E73.28529
G1 X53.385 Y77.664 E73.30359
G1 X53.635 Y77.294 E73.31844
G1 X54.172 Y76.593 E73.34781
G1 X54.538 Y76.181 E73.36614
G1 X54.879 Y75.887 E73.38112
G1 X55.579 Y75.351 E73.41044
M204 S5000
M205 X30 Y30
G0 F3000 X55.822 Y75.668
M204 S500
M205 X20 Y20
G1 F1800 X56.259 Y75.384 E73.42777
G1 X56.586 Y75.227 E73.43984
G1 X57.396 Y74.891 E73.46901
G1 X58.086 Y74.688 E73.49293
G1 X58.964 Y74.527 E73.52262
G1 X59.578 Y74.471 E73.54312
G1 X160.711 Y74.509 E76.90682
G1 X161.409 Y74.582 E76.93016
G1 X161.999 Y74.706 E76.95022
G1 X162.598 Y74.891 E76.97107
G1 X163.409 Y75.226 E77.00025
G1 X163.874 Y75.461 E77.01758
G1 X164.178 Y75.668 E77.02981
G1 X164.878 Y76.204 E77.05914
G1 X165.266 Y76.552 E77.07647
G1 X165.51 Y76.836 E77.08892
G1 X166.047 Y77.537 E77.11829
