;FLAVOR:RepRap
;TIME:10190
;Filament used: 7.39455m
;Layer height: 0.15
;Generated with Cura_SteamEngine 3.5.1
T0
M82 ;absolute extrusion mode
; Ender 3 Custom Start G-code
M104 S200 ; Set Extruder temperature
M140 S60 ; Set Heat Bed temperature
M190 S60 ; Wait for Heat Bed temperature
M109 S200 ; Wait for Extruder temperature
G28 ; Home all axes
G92 E0 ; Reset Extruder
G1 Z5.0 F3000 ; Move Z Axis up little to prevent scratching of Heat Bed
G1 X0.1 Y20 Z0.3 F5000.0 ; Move to start position
G1 X0.1 Y200.0 Z0.3 F1500.0 E15 ; Draw the first line
G1 X0.4 Y200.0 Z0.3 F5000.0 ; Move to side a little
G1 X0.4 Y20 Z0.3 F1500.0 E30 ; Draw the second line
G92 E0 ; Reset Extruder
G1 Z5.0 F3000 ; Move Z Axis up little to prevent scratching of Heat Bed
M83 ;relative extrusion mode
G1 F2400 E-5
;LAYER_COUNT:106
;LAYER:0
M107
M204 T5000
M566 X1800 Y1800
G0 F3600 X54.335 Y73.786 Z0.2
M204 P500
M566 X1200 Y1200
;TYPE:SKIRT
G1 F2400 E5
G1 F1500 X54.898 Y73.403 E0.02265
G1 X55.64 Y73.027 E0.02767
G1 X56.452 Y72.687 E0.02928
G1 X57.094 Y72.461 E0.02264
G1 X57.62 Y72.337 E0.01797
G1 X58.497 Y72.172 E0.02968
G1 X59.172 Y72.086 E0.02263
G1 X59.571 Y72.072 E0.01328
G1 X160.7 Y72.107 E3.36356
G1 X161.38 Y72.147 E0.02266
G1 X161.887 Y72.23 E0.01709
G1 X162.479 Y72.354 E0.02012
G1 X163.136 Y72.533 E0.02265
G1 X163.5 Y72.669 E0.01292
G1 X164.308 Y73.002 E0.02907
G1 X164.921 Y73.297 E0.02263
G1 X165.608 Y73.747 E0.02732
G1 X166.309 Y74.28 E0.02929
G1 X166.826 Y74.723 E0.02264
G1 X167.389 Y75.351 E0.02805
G1 X167.929 Y76.05 E0.02938
G1 X168.313 Y76.612 E0.02264
G1 X168.69 Y77.359 E0.02783
G1 X169.029 Y78.17 E0.02924
G1 X169.255 Y78.813 E0.02267
G1 X169.377 Y79.331 E0.0177
G1 X169.542 Y80.205 E0.02958
G1 X169.629 Y80.88 E0.02264
G1 X169.643 Y81.285 E0.01348
G1 X169.608 Y138.987 E1.91918
G1 X169.568 Y139.666 E0.02262
G1 X169.485 Y140.172 E0.01705
G1 X169.361 Y140.764 E0.02012
G1 X169.182 Y141.421 E0.02265
G1 X169.048 Y141.782 E0.01281
G1 X168.716 Y142.589 E0.02902
G1 X168.42 Y143.202 E0.02264
G1 X167.968 Y143.893 E0.02746
G1 X167.434 Y144.595 E0.02934
G1 X166.991 Y145.112 E0.02264
G1 X166.363 Y145.675 E0.02805
G1 X165.665 Y146.214 E0.02933
G1 X165.102 Y146.597 E0.02265
G1 X164.36 Y146.973 E0.02767
G1 X163.548 Y147.313 E0.02928
G1 X162.906 Y147.539 E0.02264
G1 X162.38 Y147.663 E0.01797
G1 X161.503 Y147.828 E0.02968
G1 X160.828 Y147.914 E0.02263
G1 X160.429 Y147.928 E0.01328
G1 X59.299 Y147.893 E3.3636
G1 X58.619 Y147.853 E0.02266
G1 X58.11 Y147.769 E0.01716
G1 X57.519 Y147.645 E0.02008
G1 X56.862 Y147.467 E0.02264
G1 X56.5 Y147.331 E0.01286
G1 X55.692 Y146.998 E0.02907
G1 X55.079 Y146.703 E0.02263
G1 X54.392 Y146.253 E0.02732
G1 X53.691 Y145.72 E0.02929
G1 X53.174 Y145.277 E0.02264
G1 X52.611 Y144.649 E0.02805
G1 X52.071 Y143.95 E0.02938
G1 X51.687 Y143.388 E0.02264
G1 X51.31 Y142.641 E0.02783
G1 X50.971 Y141.83 E0.02924
G1 X50.745 Y141.187 E0.02267
G1 X50.623 Y140.669 E0.0177
G1 X50.458 Y139.795 E0.02958
G1 X50.371 Y139.12 E0.02264
G1 X50.357 Y138.715 E0.01348
G1 X50.392 Y81.013 E1.91918
G1 X50.432 Y80.334 E0.02262
G1 X50.515 Y79.828 E0.01705
G1 X50.639 Y79.236 E0.02012
G1 X50.818 Y78.579 E0.02265
G1 X50.952 Y78.218 E0.01281
G1 X51.284 Y77.411 E0.02902
G1 X51.58 Y76.798 E0.02264
G1 X52.032 Y76.107 E0.02746
G1 X52.566 Y75.405 E0.02934
G1 X53.009 Y74.888 E0.02264
G1 X53.637 Y74.325 E0.02805
G1 X54.335 Y73.786 E0.02933
M566 X1800 Y1800
G0 F3600 X54.58 Y74.103
M566 X1200 Y1200
G1 F1500 X55.123 Y73.734 E0.02184
G1 X55.794 Y73.396 E0.02499
G1 X56.606 Y73.056 E0.02928
G1 X57.227 Y72.84 E0.02187
G1 X57.694 Y72.73 E0.01596
G1 X58.571 Y72.565 E0.02968
G1 X59.222 Y72.483 E0.02182
G1 X59.571 Y72.472 E0.01161
G1 X160.7 Y72.507 E3.36356
G1 X161.356 Y72.547 E0.02186
G1 X161.805 Y72.622 E0.01514
G1 X162.397 Y72.746 E0.02012
G1 X163.031 Y72.919 E0.02186
G1 X163.348 Y73.038 E0.01126
G1 X164.156 Y73.371 E0.02907
G1 X164.747 Y73.658 E0.02185
G1 X165.366 Y74.065 E0.02464
G1 X166.067 Y74.598 E0.02929
G1 X166.565 Y75.027 E0.02186
G1 X167.072 Y75.596 E0.02535
G1 X167.612 Y76.295 E0.02938
G1 X167.982 Y76.838 E0.02185
G1 X168.321 Y77.513 E0.02512
G1 X168.66 Y78.324 E0.02924
G1 X168.876 Y78.945 E0.02187
G1 X168.984 Y79.405 E0.01572
G1 X169.149 Y80.279 E0.02958
G1 X169.232 Y80.931 E0.02186
G1 X169.243 Y81.284 E0.01175
G1 X169.208 Y138.986 E1.91918
G1 X169.168 Y139.642 E0.02186
G1 X169.093 Y140.09 E0.01511
G1 X168.969 Y140.682 E0.02012
G1 X168.796 Y141.316 E0.02186
G1 X168.678 Y141.629 E0.01113
G1 X168.346 Y142.436 E0.02902
G1 X168.059 Y143.028 E0.02188
G1 X167.65 Y143.651 E0.02479
G1 X167.116 Y144.353 E0.02934
G1 X166.687 Y144.851 E0.02186
G1 X166.118 Y145.358 E0.02535
G1 X165.42 Y145.897 E0.02933
G1 X164.877 Y146.266 E0.02184
G1 X164.206 Y146.604 E0.02499
G1 X163.394 Y146.944 E0.02928
G1 X162.773 Y147.16 E0.02187
G1 X162.306 Y147.27 E0.01596
G1 X161.429 Y147.435 E0.02968
G1 X160.778 Y147.517 E0.02182
G1 X160.429 Y147.528 E0.01161
G1 X59.299 Y147.493 E3.3636
G1 X58.643 Y147.453 E0.02186
G1 X58.192 Y147.378 E0.01521
G1 X57.601 Y147.254 E0.02008
G1 X56.968 Y147.08 E0.02183
G1 X56.652 Y146.962 E0.01122
G1 X55.844 Y146.629 E0.02907
G1 X55.253 Y146.342 E0.02185
G1 X54.634 Y145.935 E0.02464
G1 X53.933 Y145.402 E0.02929
G1 X53.435 Y144.973 E0.02186
G1 X52.928 Y144.404 E0.02535
G1 X52.388 Y143.705 E0.02938
G1 X52.018 Y143.162 E0.02185
G1 X51.679 Y142.487 E0.02512
G1 X51.34 Y141.676 E0.02924
G1 X51.124 Y141.055 E0.02187
G1 X51.016 Y140.595 E0.01572
G1 X50.851 Y139.721 E0.02958
G1 X50.768 Y139.069 E0.02186
G1 X50.757 Y138.716 E0.01175
G1 X50.792 Y81.014 E1.91918
G1 X50.832 Y80.358 E0.02186
G1 X50.907 Y79.91 E0.01511
G1 X51.031 Y79.318 E0.02012
G1 X51.204 Y78.684 E0.02186
G1 X51.322 Y78.371 E0.01113
G1 X51.654 Y77.564 E0.02902
G1 X51.941 Y76.972 E0.02188
G1 X52.35 Y76.349 E0.02479
G1 X52.884 Y75.647 E0.02934
G1 X53.313 Y75.149 E0.02186
G1 X53.882 Y74.642 E0.02535
G1 X54.58 Y74.103 E0.02933
M566 X1800 Y1800
G0 F3600 X54.824 Y74.42
M566 X1200 Y1200
G1 F1500 X55.348 Y74.066 E0.02103
G1 X55.949 Y73.765 E0.02236
G1 X56.761 Y73.425 E0.02928
G1 X57.358 Y73.218 E0.02102
G1 X57.768 Y73.123 E0.014
G1 X58.645 Y72.958 E0.02968
G1 X59.571 Y72.872 E0.03093
G1 X160.7 Y72.907 E3.36356
G1 X161.331 Y72.947 E0.02103
G1 X161.723 Y73.013 E0.01322
G1 X162.315 Y73.137 E0.02012
G1 X163.195 Y73.408 E0.03063
G1 X164.003 Y73.741 E0.02907
G1 X164.571 Y74.019 E0.02103
G1 X165.124 Y74.384 E0.02204
G1 X165.825 Y74.917 E0.02929
G1 X166.303 Y75.33 E0.02101
G1 X166.756 Y75.84 E0.02269
G1 X167.296 Y76.539 E0.02938
G1 X167.65 Y77.063 E0.02103
G1 X167.952 Y77.668 E0.02249
G1 X168.291 Y78.479 E0.02924
G1 X168.498 Y79.076 E0.02102
G1 X168.591 Y79.479 E0.01376
G1 X168.756 Y80.353 E0.02958
G1 X168.843 Y81.284 E0.0311
G1 X168.808 Y138.986 E1.91918
G1 X168.768 Y139.617 E0.02103
G1 X168.702 Y140.008 E0.01319
G1 X168.578 Y140.6 E0.02012
G1 X168.308 Y141.477 E0.03052
G1 X167.976 Y142.284 E0.02902
G1 X167.699 Y142.853 E0.02105
G1 X167.331 Y143.409 E0.02218
G1 X166.797 Y144.111 E0.02934
G1 X166.384 Y144.589 E0.02101
G1 X165.874 Y145.041 E0.02267
G1 X165.176 Y145.58 E0.02933
G1 X164.652 Y145.934 E0.02103
G1 X164.051 Y146.235 E0.02236
G1 X163.239 Y146.575 E0.02928
G1 X162.642 Y146.782 E0.02102
G1 X162.232 Y146.877 E0.014
G1 X161.355 Y147.042 E0.02968
G1 X160.429 Y147.128 E0.03093
G1 X59.299 Y147.093 E3.3636
G1 X58.668 Y147.053 E0.02103
G1 X58.274 Y146.986 E0.01329
G1 X57.683 Y146.862 E0.02008
G1 X56.805 Y146.592 E0.03055
G1 X55.997 Y146.259 E0.02907
G1 X55.429 Y145.981 E0.02103
G1 X54.876 Y145.616 E0.02204
G1 X54.175 Y145.083 E0.02929
G1 X53.697 Y144.67 E0.02101
G1 X53.244 Y144.16 E0.02269
G1 X52.704 Y143.461 E0.02938
G1 X52.35 Y142.937 E0.02103
G1 X52.048 Y142.332 E0.02249
G1 X51.709 Y141.521 E0.02924
G1 X51.502 Y140.924 E0.02102
G1 X51.409 Y140.521 E0.01376
G1 X51.244 Y139.647 E0.02958
G1 X51.157 Y138.716 E0.0311
G1 X51.192 Y81.014 E1.91918
G1 X51.232 Y80.383 E0.02103
G1 X51.298 Y79.992 E0.01319
G1 X51.422 Y79.4 E0.02012
G1 X51.692 Y78.523 E0.03052
G1 X52.024 Y77.716 E0.02902
G1 X52.301 Y77.147 E0.02105
G1 X52.669 Y76.591 E0.02218
G1 X53.203 Y75.889 E0.02934
G1 X53.616 Y75.411 E0.02101
G1 X54.126 Y74.959 E0.02267
G1 X54.824 Y74.42 E0.02933
M566 X1800 Y1800
G0 F3600 X55.069 Y74.736
M566 X1200 Y1200
G1 F1500 X55.572 Y74.398 E0.02016
G1 X56.103 Y74.134 E0.01972
G1 X56.915 Y73.794 E0.02928
G1 X57.489 Y73.597 E0.02018
G1 X57.841 Y73.516 E0.01201
G1 X58.718 Y73.351 E0.02968
G1 X59.571 Y73.272 E0.02849
G1 X160.7 Y73.307 E3.36356
G1 X161.305 Y73.347 E0.02017
G1 X161.641 Y73.405 E0.01134
G1 X162.233 Y73.529 E0.02012
G1 X163.043 Y73.778 E0.02818
G1 X163.851 Y74.111 E0.02907
G1 X164.395 Y74.378 E0.02016
G1 X164.882 Y74.702 E0.01945
G1 X165.583 Y75.235 E0.02929
G1 X166.041 Y75.633 E0.02018
G1 X166.439 Y76.085 E0.02003
G1 X166.979 Y76.784 E0.02938
G1 X167.317 Y77.287 E0.02016
G1 X167.583 Y77.822 E0.01987
G1 X167.922 Y78.633 E0.02924
G1 X168.119 Y79.207 E0.02018
G1 X168.198 Y79.554 E0.01184
G1 X168.363 Y80.428 E0.02958
G1 X168.443 Y81.284 E0.02859
G1 X168.408 Y138.986 E1.91918
G1 X168.368 Y139.591 E0.02017
G1 X168.31 Y139.926 E0.01131
G1 X168.186 Y140.518 E0.02012
G1 X167.938 Y141.325 E0.02808
G1 X167.606 Y142.132 E0.02902
G1 X167.339 Y142.676 E0.02016
G1 X167.013 Y143.167 E0.0196
G1 X166.479 Y143.869 E0.02934
G1 X166.081 Y144.326 E0.02016
G1 X165.629 Y144.725 E0.02005
G1 X164.931 Y145.264 E0.02933
G1 X164.428 Y145.602 E0.02016
G1 X163.897 Y145.866 E0.01972
G1 X163.085 Y146.206 E0.02928
G1 X162.511 Y146.403 E0.02018
G1 X162.159 Y146.484 E0.01201
G1 X161.282 Y146.649 E0.02968
G1 X160.429 Y146.728 E0.02849
G1 X59.299 Y146.693 E3.3636
G1 X58.694 Y146.653 E0.02017
G1 X58.356 Y146.595 E0.01141
G1 X57.765 Y146.471 E0.02008
G1 X56.957 Y146.222 E0.02812
G1 X56.149 Y145.889 E0.02907
G1 X55.605 Y145.622 E0.02016
G1 X55.118 Y145.298 E0.01945
G1 X54.417 Y144.765 E0.02929
G1 X53.959 Y144.367 E0.02018
G1 X53.561 Y143.915 E0.02003
G1 X53.021 Y143.216 E0.02938
G1 X52.683 Y142.713 E0.02016
G1 X52.417 Y142.178 E0.01987
G1 X52.078 Y141.367 E0.02924
G1 X51.881 Y140.793 E0.02018
G1 X51.802 Y140.446 E0.01184
G1 X51.637 Y139.572 E0.02958
G1 X51.557 Y138.716 E0.02859
G1 X51.592 Y81.014 E1.91918
G1 X51.632 Y80.409 E0.02017
G1 X51.69 Y80.074 E0.01131
G1 X51.814 Y79.482 E0.02012
G1 X52.062 Y78.675 E0.02808
G1 X52.394 Y77.868 E0.02902
G1 X52.661 Y77.324 E0.02016
G1 X52.987 Y76.833 E0.0196
G1 X53.521 Y76.131 E0.02934
G1 X53.919 Y75.674 E0.02016
G1 X54.371 Y75.275 E0.02005
G1 X55.069 Y74.736 E0.02933
M566 X1800 Y1800
G0 F3600 X55.313 Y75.053
M566 X1200 Y1200
G1 F1500 X55.795 Y74.731 E0.01928
G1 X56.258 Y74.503 E0.01717
G1 X57.07 Y74.163 E0.02928
G1 X57.618 Y73.977 E0.01925
G1 X57.915 Y73.909 E0.01013
G1 X58.792 Y73.744 E0.02968
G1 X59.57 Y73.672 E0.02599
G1 X160.699 Y73.707 E3.36356
G1 X161.559 Y73.796 E0.02876
G1 X162.151 Y73.92 E0.02012
G1 X162.89 Y74.148 E0.02572
G1 X163.698 Y74.481 E0.02907
G1 X164.217 Y74.738 E0.01926
G1 X164.64 Y75.021 E0.01693
G1 X165.341 Y75.554 E0.02929
G1 X165.777 Y75.935 E0.01926
G1 X166.123 Y76.329 E0.01744
G1 X166.663 Y77.028 E0.02938
G1 X166.984 Y77.51 E0.01926
G1 X167.214 Y77.976 E0.01728
G1 X167.553 Y78.787 E0.02924
G1 X167.739 Y79.336 E0.01928
G1 X167.805 Y79.628 E0.00996
G1 X167.97 Y80.502 E0.02958
G1 X168.043 Y81.284 E0.02612
G1 X168.008 Y138.986 E1.91918
G1 X167.919 Y139.844 E0.02869
G1 X167.795 Y140.436 E0.02012
G1 X167.568 Y141.173 E0.02565
G1 X167.236 Y141.98 E0.02902
G1 X166.979 Y142.499 E0.01926
G1 X166.695 Y142.925 E0.01703
G1 X166.161 Y143.627 E0.02934
G1 X165.779 Y144.063 E0.01928
G1 X165.385 Y144.408 E0.01742
G1 X164.687 Y144.947 E0.02933
G1 X164.205 Y145.269 E0.01928
G1 X163.742 Y145.497 E0.01717
G1 X162.93 Y145.837 E0.02928
G1 X162.382 Y146.023 E0.01925
G1 X162.085 Y146.091 E0.01013
G1 X161.208 Y146.256 E0.02968
G1 X160.43 Y146.328 E0.02599
G1 X59.3 Y146.293 E3.3636
G1 X58.439 Y146.203 E0.02879
G1 X57.848 Y146.079 E0.02008
G1 X57.11 Y145.852 E0.02568
G1 X56.302 Y145.519 E0.02907
G1 X55.783 Y145.262 E0.01926
G1 X55.36 Y144.979 E0.01693
G1 X54.659 Y144.446 E0.02929
G1 X54.223 Y144.065 E0.01926
G1 X53.877 Y143.671 E0.01744
G1 X53.337 Y142.972 E0.02938
G1 X53.016 Y142.49 E0.01926
G1 X52.786 Y142.024 E0.01728
G1 X52.447 Y141.213 E0.02924
G1 X52.261 Y140.664 E0.01928
G1 X52.195 Y140.372 E0.00996
G1 X52.03 Y139.498 E0.02958
G1 X51.957 Y138.716 E0.02612
G1 X51.992 Y81.014 E1.91918
G1 X52.081 Y80.156 E0.02869
G1 X52.205 Y79.564 E0.02012
G1 X52.432 Y78.827 E0.02565
G1 X52.764 Y78.02 E0.02902
G1 X53.021 Y77.501 E0.01926
G1 X53.305 Y77.075 E0.01703
G1 X53.839 Y76.373 E0.02934
G1 X54.221 Y75.937 E0.01928
G1 X54.615 Y75.592 E0.01742
G1 X55.313 Y75.053 E0.02933
M566 X1800 Y1800
G0 F3600 X55.557 Y75.369
M566 X1200 Y1200
G1 F1500 X56.017 Y75.065 E0.01834
G1 X56.412 Y74.872 E0.01462
G1 X57.224 Y74.532 E0.02928
G1 X57.989 Y74.303 E0.02656
G1 X58.866 Y74.138 E0.02968
G1 X59.57 Y74.072 E0.02352
G1 X160.699 Y74.107 E3.36356
G1 X161.477 Y74.188 E0.02602
G1 X162.069 Y74.312 E0.02012
G1 X162.738 Y74.518 E0.02328
G1 X163.546 Y74.851 E0.02907
G1 X164.039 Y75.097 E0.01833
G1 X164.398 Y75.339 E0.0144
G1 X165.099 Y75.872 E0.02929
G1 X165.512 Y76.236 E0.01831
G1 X165.806 Y76.574 E0.0149
G1 X166.346 Y77.273 E0.02938
G1 X166.651 Y77.732 E0.01833
G1 X166.845 Y78.13 E0.01473
G1 X167.184 Y78.941 E0.02924
G1 X167.412 Y79.702 E0.02642
G1 X167.577 Y80.576 E0.02958
G1 X167.643 Y81.283 E0.02362
G1 X167.608 Y138.985 E1.91918
G1 X167.527 Y139.762 E0.02598
G1 X167.403 Y140.354 E0.02012
G1 X167.198 Y141.021 E0.02321
G1 X166.866 Y141.828 E0.02902
G1 X166.62 Y142.321 E0.01833
G1 X166.376 Y142.683 E0.01452
G1 X165.842 Y143.385 E0.02934
G1 X165.478 Y143.798 E0.01831
G1 X165.141 Y144.092 E0.01487
G1 X164.443 Y144.631 E0.02933
G1 X163.983 Y144.935 E0.01834
G1 X163.588 Y145.128 E0.01462
G1 X162.776 Y145.468 E0.02928
G1 X162.011 Y145.697 E0.02656
G1 X161.134 Y145.862 E0.02968
G1 X160.43 Y145.928 E0.02352
G1 X59.3 Y145.893 E3.3636
G1 X58.521 Y145.812 E0.02605
G1 X57.93 Y145.688 E0.02008
G1 X57.262 Y145.482 E0.02325
G1 X56.454 Y145.149 E0.02907
G1 X55.961 Y144.903 E0.01833
G1 X55.602 Y144.661 E0.0144
G1 X54.901 Y144.128 E0.02929
G1 X54.488 Y143.764 E0.01831
G1 X54.194 Y143.426 E0.0149
G1 X53.654 Y142.727 E0.02938
G1 X53.349 Y142.268 E0.01833
G1 X53.155 Y141.87 E0.01473
G1 X52.816 Y141.059 E0.02924
G1 X52.588 Y140.298 E0.02642
G1 X52.423 Y139.424 E0.02958
G1 X52.357 Y138.717 E0.02362
G1 X52.392 Y81.015 E1.91918
G1 X52.473 Y80.238 E0.02598
G1 X52.597 Y79.646 E0.02012
G1 X52.802 Y78.979 E0.02321
G1 X53.134 Y78.172 E0.02902
G1 X53.38 Y77.679 E0.01833
G1 X53.624 Y77.317 E0.01452
G1 X54.158 Y76.615 E0.02934
G1 X54.522 Y76.202 E0.01831
G1 X54.859 Y75.908 E0.01487
G1 X55.557 Y75.369 E0.02933
M566 X1800 Y1800
G0 F3600 X55.802 Y75.686
M566 X1200 Y1200
G1 F1500 X56.238 Y75.4 E0.01734
G1 X56.567 Y75.241 E0.01215
G1 X57.379 Y74.901 E0.02928
G1 X58.063 Y74.696 E0.02375
G1 X58.94 Y74.531 E0.02968
G1 X59.57 Y74.472 E0.02105
G1 X160.699 Y74.507 E3.36356
G1 X161.395 Y74.579 E0.02327
G1 X161.987 Y74.703 E0.02012
G1 X162.586 Y74.887 E0.02084
G1 X163.394 Y75.22 E0.02907
G1 X163.859 Y75.455 E0.01733
G1 X164.156 Y75.657 E0.01195
G1 X164.857 Y76.19 E0.02929
G1 X165.246 Y76.537 E0.01734
G1 X165.49 Y76.818 E0.01238
G1 X166.03 Y77.517 E0.02938
G1 X166.316 Y77.953 E0.01734
G1 X166.476 Y78.285 E0.01226
G1 X166.815 Y79.096 E0.02924
G1 X167.019 Y79.776 E0.02361
G1 X167.184 Y80.65 E0.02958
G1 X167.243 Y81.283 E0.02114
G1 X167.208 Y138.985 E1.91918
G1 X167.136 Y139.68 E0.02324
G1 X167.012 Y140.272 E0.02012
G1 X166.828 Y140.869 E0.02078
G1 X166.496 Y141.676 E0.02902
G1 X166.262 Y142.141 E0.01731
G1 X166.058 Y142.44 E0.01204
G1 X165.524 Y143.142 E0.02934
G1 X165.178 Y143.532 E0.01734
G1 X164.896 Y143.775 E0.01238
G1 X164.198 Y144.314 E0.02933
G1 X163.762 Y144.6 E0.01734
G1 X163.433 Y144.759 E0.01215
G1 X162.621 Y145.099 E0.02928
G1 X161.937 Y145.304 E0.02375
G1 X161.06 Y145.469 E0.02968
G1 X160.43 Y145.528 E0.02105
G1 X59.3 Y145.493 E3.3636
G1 X58.603 Y145.421 E0.02331
G1 X58.012 Y145.297 E0.02008
G1 X57.414 Y145.113 E0.02081
G1 X56.606 Y144.78 E0.02907
G1 X56.141 Y144.545 E0.01733
G1 X55.844 Y144.343 E0.01195
G1 X55.143 Y143.81 E0.02929
G1 X54.754 Y143.463 E0.01734
